;Basic settings: Layer height: 0.2 Walls: 1.2 Fill: 50
;Print time: 1 hour 39 minutes
;Filament used: 4.843m 14.0g
;Filament cost: None
M80			; Turn on the power supply
M190 S70 ;Uncomment to add your own bed temperature line
M109 S245 ;Uncomment to add your own temperature line
G21        ;metric values
G90        ;absolute positioning
M82        ;set extruder to absolute mode
M107       ;start with the fan off
G28 X0 Y0  ;move X/Y to min endstops
G1 X0 Y0 F10200	  ; Fix silly issue with marlin not moving to 0 0 before probing
G29		 ;perform bed calibration
;G28 Z0     ;move Z to min endstops
G28 X	 ;move to X home
;G1 Z15.0 F10200 ;move the platform down 15mm
G1 F10200 X5 Y5 Z10			; move to ooze position
;M109 S245 ;Uncomment to add your own temperature line
G92 E0                  ;zero the extruded length
G1 F200 E20             ;extrude 2cm of feed stock
G92 E0                  ;zero the extruded length again
G1 F10200
;Put printing message on LCD screen
M117 Printing...

;Layer count: 215
;LAYER:-2
;RAFT
G0 F10200 X73.101 Y60.788 Z0.300
;TYPE:SUPPORT
G1 F900 X91.225 Y60.788 E2.26053
G1 X101.401 Y61.231 E3.53093
G1 X101.401 Y64.727 E3.96697
G1 X101.601 Y64.927 E4.00225
G1 X101.601 Y65.527 E4.07709
G1 X101.801 Y65.727 E4.11237
G1 X101.801 Y66.127 E4.16226
G1 X102.001 Y66.327 E4.19753
G1 X102.001 Y66.727 E4.24742
G1 X102.201 Y66.927 E4.28270
G1 X102.201 Y67.527 E4.35754
G1 X102.401 Y67.727 E4.39281
G1 X102.401 Y68.127 E4.44270
G1 X102.601 Y68.327 E4.47798
G1 X102.601 Y68.727 E4.52787
G1 X102.801 Y68.927 E4.56315
G1 X102.801 Y69.527 E4.63798
G1 X103.001 Y69.727 E4.67326
G1 X103.001 Y70.127 E4.72315
G1 X103.201 Y70.327 E4.75843
G1 X103.201 Y70.727 E4.80832
G1 X103.401 Y70.927 E4.84360
G1 X103.401 Y71.527 E4.91843
G1 X103.601 Y71.727 E4.95371
G1 X103.601 Y72.127 E5.00360
G1 X103.801 Y72.327 E5.03888
G1 X103.801 Y72.727 E5.08877
G1 X104.001 Y72.927 E5.12405
G1 X104.001 Y73.527 E5.19888
G1 X104.201 Y73.727 E5.23416
G1 X104.201 Y74.127 E5.28405
G1 X104.401 Y74.327 E5.31933
G1 X104.401 Y74.727 E5.36922
G1 X104.601 Y74.927 E5.40450
G1 X104.601 Y75.527 E5.47933
G1 X104.801 Y75.727 E5.51461
G1 X104.801 Y76.127 E5.56450
G1 X105.001 Y76.327 E5.59978
G1 X105.001 Y76.727 E5.64967
G1 X105.201 Y76.927 E5.68494
G1 X105.201 Y77.527 E5.75978
G1 X105.401 Y77.727 E5.79506
G1 X105.401 Y78.127 E5.84495
G1 X105.601 Y78.327 E5.88023
G1 X105.601 Y78.727 E5.93012
G1 X105.801 Y78.927 E5.96539
G1 X105.801 Y79.527 E6.04023
G1 X106.001 Y79.727 E6.07551
G1 X106.001 Y80.127 E6.12540
G1 X106.201 Y80.327 E6.16067
G1 X106.201 Y80.727 E6.21056
G1 X106.401 Y80.927 E6.24584
G1 X106.401 Y81.527 E6.32068
G1 X106.601 Y81.727 E6.35596
G1 X106.601 Y82.127 E6.40585
G1 X106.801 Y82.327 E6.44112
G1 X106.801 Y82.727 E6.49101
G1 X107.001 Y82.927 E6.52629
G1 X107.001 Y83.527 E6.60113
G1 X107.201 Y83.727 E6.63640
G1 X107.201 Y84.127 E6.68629
G1 X107.401 Y84.327 E6.72157
G1 X107.401 Y84.727 E6.77146
G1 X107.601 Y84.927 E6.80674
G1 X107.601 Y85.527 E6.88158
G1 X107.801 Y85.727 E6.91685
G1 X107.801 Y86.127 E6.96674
G1 X108.001 Y86.327 E7.00202
G1 X108.001 Y86.727 E7.05191
G1 X108.201 Y86.927 E7.08719
G1 X108.201 Y87.527 E7.16202
G1 X108.401 Y87.727 E7.19730
G1 X108.401 Y88.127 E7.24719
G1 X108.601 Y88.327 E7.28247
G1 X108.601 Y88.727 E7.33236
G1 X108.801 Y88.927 E7.36764
G1 X108.801 Y89.527 E7.44247
G1 X109.001 Y89.727 E7.47775
G1 X109.001 Y90.127 E7.52764
G1 X109.201 Y90.327 E7.56292
G1 X109.201 Y90.927 E7.63775
G1 X109.401 Y91.127 E7.67303
G1 X109.401 Y91.527 E7.72292
G1 X109.601 Y91.727 E7.75820
G1 X109.601 Y92.127 E7.80809
G1 X109.801 Y92.327 E7.84337
G1 X109.801 Y92.927 E7.91820
G1 X110.001 Y93.127 E7.95348
G1 X110.001 Y93.527 E8.00337
G1 X110.201 Y93.727 E8.03865
G1 X110.201 Y94.127 E8.08854
G1 X110.401 Y94.327 E8.12382
G1 X110.401 Y94.927 E8.19865
G1 X110.601 Y95.127 E8.23393
G1 X110.601 Y95.527 E8.28382
G1 X110.801 Y95.727 E8.31910
G1 X110.801 Y96.127 E8.36899
G1 X111.001 Y96.327 E8.40427
G1 X111.001 Y96.927 E8.47910
G1 X111.201 Y97.127 E8.51438
G1 X111.201 Y97.527 E8.56427
G1 X111.401 Y97.727 E8.59955
G1 X111.401 Y98.127 E8.64944
G1 X111.601 Y98.327 E8.68471
G1 X111.601 Y98.927 E8.75955
G1 X111.801 Y99.127 E8.79483
G1 X111.801 Y99.527 E8.84472
G1 X112.001 Y99.727 E8.87999
G1 X112.001 Y100.127 E8.92989
G1 X112.201 Y100.327 E8.96516
G1 X112.201 Y100.927 E9.04000
G1 X112.401 Y101.127 E9.07528
G1 X112.401 Y101.527 E9.12517
G1 X112.601 Y101.727 E9.16044
G1 X112.601 Y102.127 E9.21033
G1 X112.801 Y102.327 E9.24561
G1 X112.801 Y102.927 E9.32045
G1 X113.001 Y103.127 E9.35572
G1 X113.001 Y103.527 E9.40561
G1 X113.201 Y103.727 E9.44089
G1 X113.201 Y104.127 E9.49078
G1 X113.401 Y104.327 E9.52606
G1 X113.401 Y104.927 E9.60090
G1 X113.601 Y105.127 E9.63617
G1 X113.601 Y105.527 E9.68606
G1 X113.801 Y105.727 E9.72134
G1 X113.801 Y106.127 E9.77123
G1 X114.001 Y106.327 E9.80651
G1 X114.001 Y106.927 E9.88134
G1 X114.201 Y107.127 E9.91662
G1 X114.201 Y107.527 E9.96651
G1 X114.401 Y107.727 E10.00179
G1 X114.401 Y108.127 E10.05168
G1 X114.601 Y108.327 E10.08696
G1 X114.601 Y108.927 E10.16179
G1 X114.801 Y109.127 E10.19707
G1 X114.801 Y109.527 E10.24696
G1 X115.001 Y109.727 E10.28224
G1 X115.001 Y110.127 E10.33213
G1 X115.201 Y110.327 E10.36741
G1 X115.201 Y110.927 E10.44224
G1 X115.401 Y111.127 E10.47752
G1 X115.401 Y111.527 E10.52741
G1 X115.601 Y111.727 E10.56269
G1 X115.601 Y112.127 E10.61258
G1 X115.801 Y112.327 E10.64786
G1 X115.801 Y112.927 E10.72269
G1 X116.001 Y113.127 E10.75797
G1 X116.001 Y113.527 E10.80786
G1 X116.201 Y113.727 E10.84314
G1 X116.201 Y114.127 E10.89303
G1 X116.401 Y114.327 E10.92830
G1 X116.401 Y114.927 E11.00314
G1 X116.601 Y115.127 E11.03842
G1 X116.601 Y115.527 E11.08831
G1 X116.801 Y115.727 E11.12359
G1 X116.801 Y128.188 E12.67779
G1 X76.501 Y128.188 E17.70423
G1 X76.501 Y120.049 E18.71937
G1 X76.301 Y119.849 E18.75465
G1 X76.301 Y117.049 E19.10388
G1 X76.101 Y116.849 E19.13916
G1 X76.101 Y114.049 E19.48839
G1 X75.901 Y113.849 E19.52366
G1 X75.901 Y111.049 E19.87290
G1 X75.701 Y110.849 E19.90817
G1 X75.701 Y107.849 E20.28235
G1 X75.501 Y107.649 E20.31763
G1 X75.501 Y104.849 E20.66686
G1 X75.301 Y104.649 E20.70214
G1 X75.301 Y101.849 E21.05137
G1 X75.101 Y101.649 E21.08665
G1 X75.101 Y98.849 E21.43588
G1 X74.901 Y98.649 E21.47116
G1 X74.901 Y95.849 E21.82039
G1 X74.701 Y95.649 E21.85566
G1 X74.701 Y92.649 E22.22984
G1 X74.501 Y92.449 E22.26512
G1 X74.501 Y89.649 E22.61435
G1 X74.301 Y89.449 E22.64963
G1 X74.301 Y86.649 E22.99886
G1 X74.101 Y86.449 E23.03414
G1 X74.101 Y83.649 E23.38337
G1 X73.901 Y83.449 E23.41865
G1 X73.901 Y80.449 E23.79282
G1 X73.701 Y80.249 E23.82810
G1 X73.701 Y77.449 E24.17733
G1 X73.501 Y77.249 E24.21261
G1 X73.501 Y74.449 E24.56184
G1 X73.301 Y74.249 E24.59712
G1 X73.301 Y71.449 E24.94635
G1 X73.101 Y71.249 E24.98163
G1 X73.101 Y60.788 E26.28638
G0 F10200 X73.500 Y60.638
G1 F900 X73.500 Y77.460 E28.38451
G0 F10200 X76.500 Y60.638
G1 F900 X76.500 Y128.338 E36.82843
G0 F10200 X79.500 Y128.338
G1 F900 X79.500 Y60.638 E45.27235
G0 F10200 X82.500 Y60.638
G1 F900 X82.500 Y128.338 E53.71626
G0 F10200 X85.500 Y128.338
G1 F900 X85.500 Y60.638 E62.16018
G0 F10200 X88.500 Y60.638
G1 F900 X88.500 Y128.338 E70.60410
G0 F10200 X91.500 Y128.338
G1 F900 X91.500 Y60.650 E79.04652
G0 F10200 X94.500 Y60.781
G1 F900 X94.500 Y128.338 E87.47260
G0 F10200 X97.500 Y128.338
G1 F900 X97.500 Y60.911 E95.88247
G0 F10200 X100.500 Y61.042
G1 F900 X100.500 Y128.338 E104.27599
G0 F10200 X103.500 Y128.338
G1 F900 X103.500 Y70.814 E111.45070
G0 F10200 X106.500 Y80.814
G1 F900 X106.500 Y128.338 E117.37816
G0 F10200 X109.500 Y128.338
G1 F900 X109.500 Y91.014 E122.03341
G0 F10200 X112.500 Y101.014
G1 F900 X112.500 Y128.338 E125.44141
G0 F10200 X115.500 Y128.338
G1 F900 X115.500 Y111.014 E127.60216
;LAYER:-1
;RAFT
G0 F10200 X115.460 Y111.500 Z0.570
;TYPE:SUPPORT
G1 F900 X73.039 Y69.080 E130.29585
G0 F10200 X73.039 Y70.211
G1 F900 X116.060 Y113.231 E133.02765
G0 F10200 X116.460 Y114.763
G1 F900 X73.240 Y71.543 E135.77211
G0 F10200 X73.240 Y72.675
G1 F900 X116.860 Y116.295 E138.54198
G0 F10200 X116.860 Y117.426
G1 F900 X73.240 Y73.806 E141.31184
G0 F10200 X73.440 Y75.137
G1 F900 X116.860 Y118.557 E144.06900
G0 F10200 X116.860 Y119.689
G1 F900 X73.440 Y76.269 E146.82617
G0 F10200 X73.640 Y77.600
G1 F900 X116.860 Y120.820 E149.57063
G0 F10200 X116.860 Y121.951
G1 F900 X73.640 Y78.732 E152.31506
G0 F10200 X73.640 Y79.863
G1 F900 X116.861 Y123.083 E155.05956
G0 F10200 X116.861 Y124.215
G1 F900 X73.841 Y81.194 E157.79136
G0 F10200 X73.841 Y82.326
G1 F900 X116.861 Y125.346 E160.52312
G0 F10200 X116.861 Y126.478
G1 F900 X73.841 Y83.457 E163.25492
G0 F10200 X74.041 Y84.789
G1 F900 X116.861 Y127.609 E165.97398
G0 F10200 X116.367 Y128.247
G1 F900 X74.041 Y85.920 E168.66171
G0 F10200 X74.240 Y87.251
G1 F900 X115.236 Y128.247 E171.26495
G0 F10200 X114.105 Y128.247
G1 F900 X74.240 Y88.382 E173.79637
G0 F10200 X74.440 Y89.714
G1 F900 X112.973 Y128.247 E176.24321
G0 F10200 X111.842 Y128.247
G1 F900 X74.440 Y90.845 E178.61823
G0 F10200 X74.440 Y91.976
G1 F900 X110.711 Y128.247 E180.92143
G0 F10200 X109.579 Y128.247
G1 F900 X74.640 Y93.308 E183.14006
G0 F10200 X74.640 Y94.439
G1 F900 X108.448 Y128.247 E185.28686
G0 F10200 X107.316 Y128.247
G1 F900 X74.640 Y95.571 E187.36178
G0 F10200 X74.840 Y96.902
G1 F900 X106.185 Y128.247 E189.35218
G0 F10200 X105.054 Y128.247
G1 F900 X74.840 Y98.033 E191.27077
G0 F10200 X75.041 Y99.365
G1 F900 X103.922 Y128.247 E193.10474
G0 F10200 X102.791 Y128.247
G1 F900 X75.041 Y100.496 E194.86689
G0 F10200 X75.041 Y101.628
G1 F900 X101.660 Y128.247 E196.55720
G0 F10200 X100.528 Y128.247
G1 F900 X75.241 Y102.959 E198.16295
G0 F10200 X75.241 Y104.091
G1 F900 X99.397 Y128.247 E199.69685
G0 F10200 X98.265 Y128.247
G1 F900 X75.440 Y105.421 E201.14627
G0 F10200 X75.440 Y106.553
G1 F900 X97.134 Y128.247 E202.52383
G0 F10200 X96.003 Y128.247
G1 F900 X75.640 Y107.884 E203.81688
G0 F10200 X75.640 Y109.016
G1 F900 X94.871 Y128.247 E205.03805
G0 F10200 X93.740 Y128.247
G1 F900 X75.640 Y110.147 E206.18739
G0 F10200 X75.840 Y111.478
G1 F900 X92.609 Y128.247 E207.25222
G0 F10200 X91.477 Y128.247
G1 F900 X75.840 Y112.610 E208.24517
G0 F10200 X75.840 Y113.741
G1 F900 X90.346 Y128.247 E209.16630
G0 F10200 X89.214 Y128.247
G1 F900 X76.040 Y115.073 E210.00285
G0 F10200 X76.040 Y116.204
G1 F900 X88.083 Y128.247 E210.76758
G0 F10200 X86.952 Y128.247
G1 F900 X76.240 Y117.535 E211.44779
G0 F10200 X76.240 Y118.667
G1 F900 X85.820 Y128.247 E212.05612
G0 F10200 X84.689 Y128.247
G1 F900 X76.240 Y119.798 E212.59263
G0 F10200 X76.440 Y121.129
G1 F900 X83.558 Y128.247 E213.04462
G0 F10200 X82.426 Y128.247
G1 F900 X76.440 Y122.260 E213.42476
G0 F10200 X76.440 Y123.392
G1 F900 X81.295 Y128.247 E213.73305
G0 F10200 X80.163 Y128.247
G1 F900 X76.440 Y124.523 E213.96949
G0 F10200 X76.440 Y125.654
G1 F900 X79.032 Y128.247 E214.13412
G0 F10200 X77.901 Y128.247
G1 F900 X76.440 Y126.786 E214.22689
G0 F10200 X76.440 Y127.917
G1 F900 X76.769 Y128.247 E214.24781
G0 F10200 X115.060 Y109.969
G1 F900 X73.039 Y67.948 E216.91614
G0 F10200 X73.039 Y66.817
G1 F900 X114.660 Y108.437 E219.55904
G0 F10200 X114.060 Y106.706
G1 F900 X73.039 Y65.685 E222.16386
G0 F10200 X73.039 Y64.554
G1 F900 X113.660 Y105.175 E224.74329
G0 F10200 X113.060 Y103.444
G1 F900 X73.039 Y63.423 E227.28462
G0 F10200 X73.039 Y62.291
G1 F900 X112.660 Y101.912 E229.80055
G0 F10200 X112.260 Y100.380
G1 F900 X73.039 Y61.160 E232.29104
G0 F10200 X73.738 Y60.727
G1 F900 X111.660 Y98.649 E234.69909
G0 F10200 X111.260 Y97.118
G1 F900 X74.869 Y60.727 E237.00991
G0 F10200 X76.001 Y60.727
G1 F900 X110.660 Y95.386 E239.21075
G0 F10200 X110.260 Y93.855
G1 F900 X77.132 Y60.727 E241.31437
G0 F10200 X78.263 Y60.727
G1 F900 X109.860 Y92.324 E243.32078
G0 F10200 X109.260 Y90.593
G1 F900 X79.395 Y60.727 E245.21723
G0 F10200 X80.526 Y60.727
G1 F900 X108.860 Y89.061 E247.01644
G0 F10200 X108.260 Y87.330
G1 F900 X81.658 Y60.727 E248.70569
G0 F10200 X82.789 Y60.727
G1 F900 X107.860 Y85.798 E250.29770
G0 F10200 X107.260 Y84.067
G1 F900 X83.920 Y60.727 E251.77979
G0 F10200 X85.052 Y60.727
G1 F900 X106.860 Y82.535 E253.16459
G0 F10200 X106.459 Y81.004
G1 F900 X86.183 Y60.727 E254.45215
G0 F10200 X87.314 Y60.727
G1 F900 X105.860 Y79.273 E255.62981
G0 F10200 X105.460 Y77.742
G1 F900 X88.446 Y60.727 E256.71023
G0 F10200 X89.577 Y60.727
G1 F900 X104.860 Y76.010 E257.68070
G0 F10200 X104.460 Y74.479
G1 F900 X90.709 Y60.727 E258.55392
G0 F10200 X91.868 Y60.756
G1 F900 X104.059 Y72.947 E259.32805
G0 F10200 X103.460 Y71.216
G1 F900 X93.051 Y60.807 E259.98902
G0 F10200 X94.234 Y60.859
G1 F900 X102.859 Y69.484 E260.53670
G0 F10200 X102.460 Y67.953
G1 F900 X95.417 Y60.910 E260.98393
G0 F10200 X96.600 Y60.962
G1 F900 X102.060 Y66.422 E261.33064
G0 F10200 X101.460 Y64.691
G1 F900 X97.783 Y61.014 E261.56413
G0 F10200 X98.966 Y61.065
G1 F900 X101.460 Y63.559 E261.72250
G0 F10200 X101.460 Y62.428
G1 F900 X100.149 Y61.117 E261.80575
G0 F10200 X101.332 Y61.168
G1 F900 X101.460 Y61.296 E261.81388
;LAYER:-1
;RAFT
G0 F10200 X101.461 Y61.400 Z0.840
;TYPE:SUPPORT
G1 F900 X73.041 Y61.400 E263.08997
G0 F10200 X73.041 Y61.800
G1 F900 X101.461 Y61.800 E264.36606
G0 F10200 X101.461 Y62.200
G1 F900 X73.041 Y62.200 E265.64215
G0 F10200 X73.041 Y62.600
G1 F900 X101.461 Y62.600 E266.91824
G0 F10200 X101.461 Y63.000
G1 F900 X73.041 Y63.000 E268.19433
G0 F10200 X73.041 Y63.400
G1 F900 X101.461 Y63.400 E269.47043
G0 F10200 X101.461 Y63.800
G1 F900 X73.041 Y63.800 E270.74652
G0 F10200 X73.041 Y64.200
G1 F900 X101.461 Y64.200 E272.02261
G0 F10200 X101.461 Y64.600
G1 F900 X73.041 Y64.600 E273.29870
G0 F10200 X73.041 Y65.000
G1 F900 X101.661 Y65.000 E274.58377
G0 F10200 X101.661 Y65.400
G1 F900 X73.041 Y65.400 E275.86884
G0 F10200 X73.041 Y65.800
G1 F900 X101.861 Y65.800 E277.16290
G0 F10200 X101.959 Y66.200
G1 F900 X73.041 Y66.200 E278.46135
G0 F10200 X73.041 Y66.600
G1 F900 X102.061 Y66.600 E279.76438
G0 F10200 X102.261 Y67.000
G1 F900 X73.041 Y67.000 E281.07639
G0 F10200 X73.041 Y67.400
G1 F900 X102.261 Y67.400 E282.38841
G0 F10200 X102.461 Y67.800
G1 F900 X73.041 Y67.800 E283.70940
G0 F10200 X73.041 Y68.200
G1 F900 X102.559 Y68.200 E285.03479
G0 F10200 X102.661 Y68.600
G1 F900 X73.041 Y68.600 E286.36476
G0 F10200 X73.041 Y69.000
G1 F900 X102.861 Y69.000 E287.70372
G0 F10200 X102.861 Y69.400
G1 F900 X73.041 Y69.400 E289.04267
G0 F10200 X73.041 Y69.800
G1 F900 X103.061 Y69.800 E290.39060
G0 F10200 X103.159 Y70.200
G1 F900 X73.041 Y70.200 E291.74294
G0 F10200 X73.041 Y70.600
G1 F900 X103.261 Y70.600 E293.09985
G0 F10200 X103.461 Y71.000
G1 F900 X73.041 Y71.000 E294.46575
G0 F10200 X73.167 Y71.400
G1 F900 X103.461 Y71.400 E295.82598
G0 F10200 X103.661 Y71.800
G1 F900 X73.241 Y71.800 E297.19188
G0 F10200 X73.241 Y72.200
G1 F900 X103.759 Y72.200 E298.56217
G0 F10200 X103.861 Y72.600
G1 F900 X73.241 Y72.600 E299.93705
G0 F10200 X73.241 Y73.000
G1 F900 X104.061 Y73.000 E301.32090
G0 F10200 X104.061 Y73.400
G1 F900 X73.241 Y73.400 E302.70475
G0 F10200 X73.241 Y73.800
G1 F900 X104.261 Y73.800 E304.09759
G0 F10200 X104.359 Y74.200
G1 F900 X73.241 Y74.200 E305.49482
G0 F10200 X73.441 Y74.600
G1 F900 X104.461 Y74.600 E306.88766
G0 F10200 X104.661 Y75.000
G1 F900 X73.441 Y75.000 E308.28947
G0 F10200 X73.441 Y75.400
G1 F900 X104.661 Y75.400 E309.69129
G0 F10200 X104.861 Y75.800
G1 F900 X73.441 Y75.800 E311.10208
G0 F10200 X73.441 Y76.200
G1 F900 X104.959 Y76.200 E312.51728
G0 F10200 X105.061 Y76.600
G1 F900 X73.441 Y76.600 E313.93705
G0 F10200 X73.441 Y77.000
G1 F900 X105.261 Y77.000 E315.36581
G0 F10200 X105.261 Y77.400
G1 F900 X73.567 Y77.400 E316.78891
G0 F10200 X73.641 Y77.800
G1 F900 X105.461 Y77.800 E318.21766
G0 F10200 X105.559 Y78.200
G1 F900 X73.641 Y78.200 E319.65082
G0 F10200 X73.641 Y78.600
G1 F900 X105.661 Y78.600 E321.08856
G0 F10200 X105.861 Y79.000
G1 F900 X73.641 Y79.000 E322.53527
G0 F10200 X73.641 Y79.400
G1 F900 X105.861 Y79.400 E323.98199
G0 F10200 X106.061 Y79.800
G1 F900 X73.641 Y79.800 E325.43768
G0 F10200 X73.041 Y61.000
G1 F900 X97.491 Y61.000 E326.53552
G0 F10200 X106.159 Y80.200
G1 F900 X73.641 Y80.200 E327.99561
G0 F10200 X73.841 Y80.600
G1 F900 X106.261 Y80.600 E329.45131
G0 F10200 X106.461 Y81.000
G1 F900 X73.841 Y81.000 E330.91599
G0 F10200 X73.841 Y81.400
G1 F900 X106.461 Y81.400 E332.38066
G0 F10200 X106.661 Y81.800
G1 F900 X73.841 Y81.800 E333.85432
G0 F10200 X73.841 Y82.200
G1 F900 X106.759 Y82.200 E335.33238
G0 F10200 X106.861 Y82.600
G1 F900 X73.841 Y82.600 E336.81501
G0 F10200 X73.841 Y83.000
G1 F900 X107.061 Y83.000 E338.30663
G0 F10200 X107.061 Y83.400
G1 F900 X73.841 Y83.400 E339.79825
G0 F10200 X74.041 Y83.800
G1 F900 X107.261 Y83.800 E341.28987
G0 F10200 X107.359 Y84.200
G1 F900 X74.041 Y84.200 E342.78588
G0 F10200 X74.041 Y84.600
G1 F900 X107.461 Y84.600 E344.28648
G0 F10200 X107.661 Y85.000
G1 F900 X74.041 Y85.000 E345.79606
G0 F10200 X74.041 Y85.400
G1 F900 X107.661 Y85.400 E347.30564
G0 F10200 X107.861 Y85.800
G1 F900 X74.041 Y85.800 E348.82420
G0 F10200 X74.041 Y86.200
G1 F900 X107.959 Y86.200 E350.34715
G0 F10200 X108.061 Y86.600
G1 F900 X74.167 Y86.600 E351.86903
G0 F10200 X74.241 Y87.000
G1 F900 X108.261 Y87.000 E353.39657
G0 F10200 X108.261 Y87.400
G1 F900 X74.241 Y87.400 E354.92411
G0 F10200 X74.241 Y87.800
G1 F900 X108.461 Y87.800 E356.46063
G0 F10200 X108.559 Y88.200
G1 F900 X74.241 Y88.200 E358.00155
G0 F10200 X74.241 Y88.600
G1 F900 X108.661 Y88.600 E359.54705
G0 F10200 X108.861 Y89.000
G1 F900 X74.241 Y89.000 E361.10153
G0 F10200 X74.241 Y89.400
G1 F900 X108.861 Y89.400 E362.65600
G0 F10200 X109.061 Y89.800
G1 F900 X74.441 Y89.800 E364.21048
G0 F10200 X74.441 Y90.200
G1 F900 X109.159 Y90.200 E365.76936
G0 F10200 X109.261 Y90.600
G1 F900 X74.441 Y90.600 E367.33282
G0 F10200 X74.441 Y91.000
G1 F900 X109.359 Y91.000 E368.90068
G0 F10200 X109.461 Y91.400
G1 F900 X74.441 Y91.400 E370.47312
G0 F10200 X74.441 Y91.800
G1 F900 X109.661 Y91.800 E372.05454
G0 F10200 X109.759 Y92.200
G1 F900 X74.441 Y92.200 E373.64036
G0 F10200 X74.567 Y92.600
G1 F900 X109.861 Y92.600 E375.22510
G0 F10200 X109.959 Y93.000
G1 F900 X74.641 Y93.000 E376.81092
G0 F10200 X74.641 Y93.400
G1 F900 X110.061 Y93.400 E378.40132
G0 F10200 X110.261 Y93.800
G1 F900 X74.641 Y93.800 E380.00070
G0 F10200 X74.641 Y94.200
G1 F900 X110.359 Y94.200 E381.60448
G0 F10200 X110.461 Y94.600
G1 F900 X74.641 Y94.600 E383.21284
G0 F10200 X74.641 Y95.000
G1 F900 X110.559 Y95.000 E384.82560
G0 F10200 X110.661 Y95.400
G1 F900 X74.641 Y95.400 E386.44294
G0 F10200 X74.767 Y95.800
G1 F900 X110.861 Y95.800 E388.06361
G0 F10200 X110.959 Y96.200
G1 F900 X74.841 Y96.200 E389.68535
G0 F10200 X74.841 Y96.600
G1 F900 X111.061 Y96.600 E391.31167
G0 F10200 X111.159 Y97.000
G1 F900 X74.841 Y97.000 E392.94239
G0 F10200 X74.841 Y97.400
G1 F900 X111.261 Y97.400 E394.57769
G0 F10200 X111.461 Y97.800
G1 F900 X74.841 Y97.800 E396.22197
G0 F10200 X74.841 Y98.200
G1 F900 X111.559 Y98.200 E397.87065
G0 F10200 X111.661 Y98.600
G1 F900 X74.841 Y98.600 E399.52392
G0 F10200 X75.041 Y99.000
G1 F900 X111.759 Y99.000 E401.17260
G0 F10200 X111.861 Y99.400
G1 F900 X75.041 Y99.400 E402.82586
G0 F10200 X75.041 Y99.800
G1 F900 X112.061 Y99.800 E404.48810
G0 F10200 X112.159 Y100.200
G1 F900 X75.041 Y100.200 E406.15474
G0 F10200 X75.041 Y100.600
G1 F900 X112.261 Y100.600 E407.82597
G0 F10200 X112.359 Y101.000
G1 F900 X75.041 Y101.000 E409.50159
G0 F10200 X75.041 Y101.400
G1 F900 X112.461 Y101.400 E411.18179
G0 F10200 X112.661 Y101.800
G1 F900 X75.167 Y101.800 E412.86531
G0 F10200 X75.241 Y102.200
G1 F900 X112.759 Y102.200 E414.54992
G0 F10200 X112.861 Y102.600
G1 F900 X75.241 Y102.600 E416.23910
G0 F10200 X75.241 Y103.000
G1 F900 X112.959 Y103.000 E417.93268
G0 F10200 X113.061 Y103.400
G1 F900 X75.241 Y103.400 E419.63085
G0 F10200 X75.241 Y103.800
G1 F900 X113.261 Y103.800 E421.33799
G0 F10200 X113.359 Y104.200
G1 F900 X75.241 Y104.200 E423.04953
G0 F10200 X75.241 Y104.600
G1 F900 X113.461 Y104.600 E424.76565
G0 F10200 X113.559 Y105.000
G1 F900 X75.441 Y105.000 E426.47720
G0 F10200 X75.441 Y105.400
G1 F900 X113.661 Y105.400 E428.19332
G0 F10200 X113.861 Y105.800
G1 F900 X75.441 Y105.800 E429.91842
G0 F10200 X75.441 Y106.200
G1 F900 X113.959 Y106.200 E431.64793
G0 F10200 X114.061 Y106.600
G1 F900 X75.441 Y106.600 E433.38201
G0 F10200 X75.441 Y107.000
G1 F900 X114.159 Y107.000 E435.12050
G0 F10200 X114.261 Y107.400
G1 F900 X75.441 Y107.400 E436.86356
G0 F10200 X75.567 Y107.800
G1 F900 X114.461 Y107.800 E438.60995
G0 F10200 X114.559 Y108.200
G1 F900 X75.641 Y108.200 E440.35741
G0 F10200 X75.641 Y108.600
G1 F900 X114.661 Y108.600 E442.10945
G0 F10200 X114.759 Y109.000
G1 F900 X75.641 Y109.000 E443.86590
G0 F10200 X75.641 Y109.400
G1 F900 X114.861 Y109.400 E445.62692
G0 F10200 X115.061 Y109.800
G1 F900 X75.641 Y109.800 E447.39693
G0 F10200 X75.641 Y110.200
G1 F900 X115.159 Y110.200 E449.17133
G0 F10200 X115.261 Y110.600
G1 F900 X75.641 Y110.600 E450.95032
G0 F10200 X75.767 Y111.000
G1 F900 X115.359 Y111.000 E452.72805
G0 F10200 X115.461 Y111.400
G1 F900 X75.841 Y111.400 E454.50703
G0 F10200 X75.841 Y111.800
G1 F900 X115.661 Y111.800 E456.29500
G0 F10200 X115.759 Y112.200
G1 F900 X75.841 Y112.200 E458.08736
G0 F10200 X75.841 Y112.600
G1 F900 X115.861 Y112.600 E459.88431
G0 F10200 X115.959 Y113.000
G1 F900 X75.841 Y113.000 E461.68565
G0 F10200 X75.841 Y113.400
G1 F900 X116.061 Y113.400 E463.49158
G0 F10200 X116.261 Y113.800
G1 F900 X75.841 Y113.800 E465.30648
G0 F10200 X76.041 Y114.200
G1 F900 X116.359 Y114.200 E467.11681
G0 F10200 X116.461 Y114.600
G1 F900 X76.041 Y114.600 E468.93171
G0 F10200 X76.041 Y115.000
G1 F900 X116.559 Y115.000 E470.75102
G0 F10200 X116.661 Y115.400
G1 F900 X76.041 Y115.400 E472.57491
G0 F10200 X76.041 Y115.800
G1 F900 X116.861 Y115.800 E474.40777
G0 F10200 X116.861 Y116.200
G1 F900 X76.041 Y116.200 E476.24064
G0 F10200 X76.041 Y116.600
G1 F900 X116.861 Y116.600 E478.07351
G0 F10200 X116.861 Y117.000
G1 F900 X76.167 Y117.000 E479.90071
G0 F10200 X76.241 Y117.400
G1 F900 X116.861 Y117.400 E481.72460
G0 F10200 X116.861 Y117.800
G1 F900 X76.241 Y117.800 E483.54849
G0 F10200 X76.241 Y118.200
G1 F900 X116.861 Y118.200 E485.37237
G0 F10200 X116.861 Y118.600
G1 F900 X76.241 Y118.600 E487.19626
G0 F10200 X76.240 Y119.000
G1 F900 X116.860 Y119.000 E489.02014
G0 F10200 X116.860 Y119.400
G1 F900 X76.240 Y119.400 E490.84403
G0 F10200 X76.240 Y119.800
G1 F900 X116.860 Y119.800 E492.66792
G0 F10200 X116.860 Y120.200
G1 F900 X76.440 Y120.200 E494.48282
G0 F10200 X76.440 Y120.600
G1 F900 X116.860 Y120.600 E496.29773
G0 F10200 X116.860 Y121.000
G1 F900 X76.440 Y121.000 E498.11263
G0 F10200 X76.440 Y121.400
G1 F900 X116.860 Y121.400 E499.92754
G0 F10200 X116.860 Y121.800
G1 F900 X76.440 Y121.800 E501.74245
G0 F10200 X76.440 Y122.200
G1 F900 X116.860 Y122.200 E503.55735
G0 F10200 X116.860 Y122.600
G1 F900 X76.440 Y122.600 E505.37226
G0 F10200 X76.440 Y123.000
G1 F900 X116.860 Y123.000 E507.18716
G0 F10200 X116.860 Y123.400
G1 F900 X76.440 Y123.400 E509.00207
G0 F10200 X76.440 Y123.800
G1 F900 X116.860 Y123.800 E510.81697
G0 F10200 X116.860 Y124.200
G1 F900 X76.440 Y124.200 E512.63188
G0 F10200 X76.440 Y124.600
G1 F900 X116.860 Y124.600 E514.44679
G0 F10200 X116.860 Y125.000
G1 F900 X76.440 Y125.000 E516.26169
G0 F10200 X76.440 Y125.400
G1 F900 X116.860 Y125.400 E518.07660
G0 F10200 X116.860 Y125.800
G1 F900 X76.440 Y125.800 E519.89150
G0 F10200 X76.440 Y126.200
G1 F900 X116.860 Y126.200 E521.70641
G0 F10200 X116.860 Y126.600
G1 F900 X76.440 Y126.600 E523.52132
G0 F10200 X76.440 Y127.000
G1 F900 X116.860 Y127.000 E525.33622
G0 F10200 X116.860 Y127.400
G1 F900 X76.440 Y127.400 E527.15113
G0 F10200 X76.440 Y127.800
G1 F900 X116.860 Y127.800 E528.96603
G0 F10200 X116.860 Y128.200
G1 F900 X76.440 Y128.200 E530.78094
;LAYER:-1
;RAFT
G0 F10200 X76.599 Y128.247 Z1.110
;TYPE:SUPPORT
G1 F900 X76.599 Y60.727 E533.81267
G0 F10200 X76.999 Y60.727
G1 F900 X76.999 Y128.247 E536.84439
G0 F10200 X77.399 Y128.247
G1 F900 X77.399 Y60.727 E539.87612
G0 F10200 X77.799 Y60.727
G1 F900 X77.799 Y128.247 E542.90785
G0 F10200 X78.199 Y128.247
G1 F900 X78.199 Y60.727 E545.93958
G0 F10200 X78.599 Y60.727
G1 F900 X78.599 Y128.247 E548.97131
G0 F10200 X78.999 Y128.247
G1 F900 X78.999 Y60.727 E552.00303
G0 F10200 X79.399 Y60.727
G1 F900 X79.399 Y128.247 E555.03476
G0 F10200 X79.799 Y128.247
G1 F900 X79.799 Y60.727 E558.06649
G0 F10200 X76.199 Y60.727
G1 F900 X76.199 Y117.031 E560.59460
G0 F10200 X75.799 Y111.031
G1 F900 X75.799 Y60.727 E562.85331
G0 F10200 X75.399 Y60.727
G1 F900 X75.399 Y104.831 E564.83364
G0 F10200 X74.999 Y98.831
G1 F900 X74.999 Y60.727 E566.54455
G0 F10200 X74.599 Y60.727
G1 F900 X74.599 Y92.631 E567.97708
G0 F10200 X74.199 Y86.631
G1 F900 X74.199 Y60.727 E569.14020
G0 F10200 X73.799 Y60.727
G1 F900 X73.799 Y80.431 E570.02493
G0 F10200 X73.399 Y74.431
G1 F900 X73.399 Y60.727 E570.64026
G0 F10200 X80.199 Y60.727
G1 F900 X80.199 Y128.247 E573.67198
G0 F10200 X80.599 Y128.247
G1 F900 X80.599 Y60.727 E576.70371
G0 F10200 X80.999 Y60.727
G1 F900 X80.999 Y128.247 E579.73544
G0 F10200 X81.399 Y128.247
G1 F900 X81.399 Y60.727 E582.76717
G0 F10200 X81.799 Y60.727
G1 F900 X81.799 Y128.247 E585.79890
G0 F10200 X82.199 Y128.247
G1 F900 X82.199 Y60.727 E588.83062
G0 F10200 X82.599 Y60.727
G1 F900 X82.599 Y128.247 E591.86235
G0 F10200 X82.999 Y128.247
G1 F900 X82.999 Y60.727 E594.89408
G0 F10200 X83.399 Y60.727
G1 F900 X83.399 Y128.247 E597.92581
G0 F10200 X83.799 Y128.247
G1 F900 X83.799 Y60.727 E600.95753
G0 F10200 X84.199 Y60.727
G1 F900 X84.199 Y128.247 E603.98926
G0 F10200 X84.599 Y128.247
G1 F900 X84.599 Y60.727 E607.02099
G0 F10200 X84.999 Y60.727
G1 F900 X84.999 Y128.247 E610.05272
G0 F10200 X85.399 Y128.247
G1 F900 X85.399 Y60.727 E613.08445
G0 F10200 X85.799 Y60.727
G1 F900 X85.799 Y128.247 E616.11617
G0 F10200 X86.199 Y128.247
G1 F900 X86.199 Y60.727 E619.14790
G0 F10200 X86.599 Y60.727
G1 F900 X86.599 Y128.247 E622.17963
G0 F10200 X86.999 Y128.247
G1 F900 X86.999 Y60.727 E625.21136
G0 F10200 X87.399 Y60.727
G1 F900 X87.399 Y128.247 E628.24309
G0 F10200 X87.799 Y128.247
G1 F900 X87.799 Y60.727 E631.27481
G0 F10200 X88.199 Y60.727
G1 F900 X88.199 Y128.247 E634.30654
G0 F10200 X88.599 Y128.247
G1 F900 X88.599 Y60.727 E637.33827
G0 F10200 X88.999 Y60.727
G1 F900 X88.999 Y128.247 E640.37000
G0 F10200 X89.399 Y128.247
G1 F900 X89.399 Y60.727 E643.40172
G0 F10200 X89.799 Y60.727
G1 F900 X89.799 Y128.247 E646.43345
G0 F10200 X90.199 Y128.247
G1 F900 X90.199 Y60.727 E649.46518
G0 F10200 X90.599 Y60.727
G1 F900 X90.599 Y128.247 E652.49691
G0 F10200 X90.999 Y128.247
G1 F900 X90.999 Y60.727 E655.52864
G0 F10200 X91.399 Y60.735
G1 F900 X91.399 Y128.247 E658.56000
G0 F10200 X91.799 Y128.247
G1 F900 X91.799 Y60.753 E661.59056
G0 F10200 X92.199 Y60.770
G1 F900 X92.199 Y128.247 E664.62036
G0 F10200 X92.599 Y128.247
G1 F900 X92.599 Y60.787 E667.64940
G0 F10200 X92.999 Y60.805
G1 F900 X92.999 Y128.247 E670.67762
G0 F10200 X93.399 Y128.247
G1 F900 X93.399 Y60.822 E673.70508
G0 F10200 X93.799 Y60.840
G1 F900 X93.799 Y128.247 E676.73174
G0 F10200 X94.199 Y128.247
G1 F900 X94.199 Y60.857 E679.75763
G0 F10200 X94.599 Y60.875
G1 F900 X94.599 Y128.247 E682.78271
G0 F10200 X94.999 Y128.247
G1 F900 X94.999 Y60.892 E685.80703
G0 F10200 X95.399 Y60.909
G1 F900 X95.399 Y128.247 E688.83059
G0 F10200 X95.799 Y128.247
G1 F900 X95.799 Y60.927 E691.85333
G0 F10200 X96.199 Y60.944
G1 F900 X96.199 Y128.247 E694.87532
G0 F10200 X96.599 Y128.247
G1 F900 X96.599 Y60.962 E697.89649
G0 F10200 X96.999 Y60.979
G1 F900 X96.999 Y128.247 E700.91691
G0 F10200 X97.399 Y128.247
G1 F900 X97.399 Y60.997 E703.93651
G0 F10200 X97.799 Y61.014
G1 F900 X97.799 Y128.247 E706.95535
G0 F10200 X98.199 Y128.247
G1 F900 X98.199 Y61.031 E709.97343
G0 F10200 X98.599 Y61.049
G1 F900 X98.599 Y128.247 E712.99070
G0 F10200 X98.999 Y128.247
G1 F900 X98.999 Y61.066 E716.00721
G0 F10200 X99.399 Y61.084
G1 F900 X99.399 Y128.247 E719.02290
G0 F10200 X99.799 Y128.247
G1 F900 X99.799 Y61.101 E722.03784
G0 F10200 X100.199 Y61.119
G1 F900 X100.199 Y128.247 E725.05197
G0 F10200 X100.599 Y128.247
G1 F900 X100.599 Y61.136 E728.06533
G0 F10200 X100.999 Y61.153
G1 F900 X100.999 Y128.247 E731.07793
G0 F10200 X101.399 Y128.247
G1 F900 X101.399 Y61.171 E734.08972
G0 F10200 X101.799 Y65.641
G1 F900 X101.799 Y128.247 E736.90080
G0 F10200 X102.199 Y128.247
G1 F900 X102.199 Y66.841 E739.65801
G0 F10200 X102.599 Y68.241
G1 F900 X102.599 Y128.247 E742.35235
G0 F10200 X102.999 Y128.247
G1 F900 X102.999 Y69.641 E744.98382
G0 F10200 X103.399 Y70.841
G1 F900 X103.399 Y128.247 E747.56142
G0 F10200 X103.799 Y128.247
G1 F900 X103.799 Y72.241 E750.07616
G0 F10200 X104.199 Y73.641
G1 F900 X104.199 Y128.247 E752.52803
G0 F10200 X104.599 Y128.247
G1 F900 X104.599 Y74.841 E754.92602
G0 F10200 X104.999 Y76.241
G1 F900 X104.999 Y128.247 E757.26115
G0 F10200 X105.399 Y128.247
G1 F900 X105.399 Y77.641 E759.53342
G0 F10200 X105.799 Y78.841
G1 F900 X105.799 Y128.247 E761.75181
G0 F10200 X106.199 Y128.247
G1 F900 X106.199 Y80.241 E763.90734
G0 F10200 X106.599 Y81.641
G1 F900 X106.599 Y128.247 E766.00000
G0 F10200 X106.999 Y128.247
G1 F900 X106.999 Y82.841 E768.03879
G0 F10200 X107.399 Y84.241
G1 F900 X107.399 Y128.247 E770.01471
G0 F10200 X107.799 Y128.247
G1 F900 X107.799 Y85.641 E771.92777
G0 F10200 X108.199 Y86.841
G1 F900 X108.199 Y128.247 E773.78695
G0 F10200 X108.599 Y128.247
G1 F900 X108.599 Y88.241 E775.58326
G0 F10200 X108.999 Y89.641
G1 F900 X108.999 Y128.247 E777.31672
G0 F10200 X109.399 Y128.247
G1 F900 X109.399 Y91.041 E778.98731
G0 F10200 X109.799 Y92.241
G1 F900 X109.799 Y128.247 E780.60402
G0 F10200 X110.199 Y128.247
G1 F900 X110.199 Y93.641 E782.15787
G0 F10200 X110.599 Y95.041
G1 F900 X110.599 Y128.247 E783.64886
G0 F10200 X110.999 Y128.247
G1 F900 X110.999 Y96.241 E785.08597
G0 F10200 X111.399 Y97.641
G1 F900 X111.399 Y128.247 E786.46021
G0 F10200 X111.799 Y128.247
G1 F900 X111.799 Y99.041 E787.77160
G0 F10200 X112.199 Y100.241
G1 F900 X112.199 Y128.247 E789.02910
G0 F10200 X112.599 Y128.247
G1 F900 X112.599 Y101.641 E790.22374
G0 F10200 X112.999 Y103.041
G1 F900 X112.999 Y128.247 E791.35552
G0 F10200 X113.399 Y128.247
G1 F900 X113.399 Y104.241 E792.43342
G0 F10200 X113.799 Y105.641
G1 F900 X113.799 Y128.247 E793.44845
G0 F10200 X114.199 Y128.247
G1 F900 X114.199 Y107.041 E794.40063
G0 F10200 X114.599 Y108.241
G1 F900 X114.599 Y128.247 E795.29892
G0 F10200 X114.999 Y128.247
G1 F900 X114.999 Y109.641 E796.13435
G0 F10200 X115.399 Y111.041
G1 F900 X115.399 Y128.247 E796.90692
G0 F10200 X115.799 Y128.247
G1 F900 X115.799 Y112.241 E797.62561
G0 F10200 X116.199 Y113.641
G1 F900 X116.199 Y128.247 E798.28144
G0 F10200 X116.599 Y128.247
G1 F900 X116.599 Y115.041 E798.87440
;LAYER:0
M107
G1 F2100 E792.37440
G1 Z1.185
G0 F10200 X112.259 Y117.000 Z1.530
;TYPE:SUPPORT
G1 Z1.530
G1 F2100 E798.87440
G1 F900 X80.643 Y117.000 E799.92596
G0 F10200 X81.401 Y117.000
G0 X81.685 Y117.902
G0 X81.601 Y119.000
G0 X80.842 Y119.000
G1 F900 X112.458 Y119.000 E800.97751
G0 F10200 X111.701 Y119.000
G0 X110.901 Y115.208
G0 X111.659 Y115.000
G1 F900 X80.443 Y115.000 E802.01576
G0 F10200 X81.201 Y114.768
G0 X81.201 Y113.000
G0 X80.443 Y113.000
G1 F900 X111.059 Y113.000 E803.03405
G0 F10200 X111.000 Y112.867
G1 F900 X111.000 Y123.846 E803.39921
G0 F10200 X111.000 Y123.088
G0 X111.701 Y123.000
G0 X112.458 Y123.000
G1 F900 X80.842 Y123.000 E804.45076
G0 F10200 X81.000 Y123.846
G1 F900 X81.000 Y65.730 E806.38371
G0 F10200 X81.000 Y66.488
G0 X83.000 Y66.488
G0 X83.000 Y65.730
G1 F900 X83.000 Y123.846 E808.31666
G0 F10200 X83.000 Y123.088
G0 X85.000 Y123.088
G0 X85.000 Y123.846
G1 F900 X85.000 Y65.730 E810.24960
G0 F10200 X85.000 Y66.488
G0 X87.000 Y66.488
G0 X87.000 Y65.730
G1 F900 X87.000 Y123.846 E812.18255
G0 F10200 X87.000 Y123.088
G0 X89.000 Y123.088
G0 X89.000 Y123.846
G1 F900 X89.000 Y65.730 E814.11549
G0 F10200 X89.000 Y66.488
G0 X91.000 Y66.488
G0 X91.000 Y65.730
G1 F900 X91.000 Y123.846 E816.04844
G0 F10200 X91.000 Y123.088
G0 X93.000 Y123.088
G0 X93.000 Y123.846
G1 F900 X93.000 Y65.730 E817.98139
G0 F10200 X93.000 Y66.488
G0 X94.959 Y66.488
G0 X95.000 Y65.730
G1 F900 X95.000 Y123.846 E819.91433
G0 F10200 X95.000 Y123.088
G0 X97.000 Y123.088
G0 X97.000 Y123.846
G1 F900 X97.000 Y66.125 E821.83414
G0 F10200 X97.259 Y67.000
G1 F900 X77.443 Y67.000 E822.49322
G0 F10200 X78.201 Y67.000
G0 X78.201 Y69.000
G0 X77.443 Y69.000
G1 F900 X97.859 Y69.000 E823.17226
G0 F10200 X97.101 Y69.008
G0 X97.217 Y70.274
G0 X97.701 Y71.008
G0 X98.459 Y71.000
G1 F900 X77.643 Y71.000 E823.86461
G0 F10200 X78.401 Y71.000
G0 X78.601 Y73.000
G0 X77.843 Y73.000
G1 F900 X99.059 Y73.000 E824.57025
G0 F10200 X99.000 Y72.667
G1 F900 X99.000 Y123.846 E826.27247
G0 F10200 X99.000 Y123.088
G0 X111.701 Y121.000
G0 X112.458 Y121.000
G1 F900 X80.842 Y121.000 E827.32403
G0 F10200 X81.601 Y121.000
G0 X81.685 Y117.902
G0 X81.285 Y111.902
G0 X81.001 Y111.000
G0 X80.243 Y111.000
G1 F900 X110.459 Y111.000 E828.32901
G0 F10200 X109.701 Y111.208
G0 X109.417 Y111.074
G0 X109.101 Y109.208
G0 X109.859 Y109.000
G1 F900 X80.043 Y109.000 E829.32070
G0 F10200 X80.801 Y108.768
G0 X80.801 Y107.000
G0 X80.043 Y107.000
G1 F900 X109.259 Y107.000 E830.29243
G0 F10200 X109.000 Y106.067
G1 F900 X109.000 Y123.846 E830.88376
G0 F10200 X109.000 Y123.088
G0 X107.000 Y123.088
G0 X107.000 Y123.846
G1 F900 X107.000 Y99.467 E831.69461
G0 F10200 X106.859 Y99.000
G1 F900 X79.443 Y99.000 E832.60647
G0 F10200 X80.201 Y99.000
G0 X80.285 Y96.702
G0 X79.979 Y96.516
G0 X79.392 Y97.000
G1 F900 X106.259 Y97.000 E833.50007
G0 F10200 X105.501 Y97.208
G0 X105.217 Y97.074
G0 X104.901 Y95.208
G0 X105.659 Y95.000
G1 F900 X79.243 Y95.000 E834.37867
G0 F10200 X80.001 Y95.000
G0 X80.085 Y93.702
G0 X79.801 Y93.000
G0 X79.043 Y93.000
G1 F900 X105.059 Y93.000 E835.24396
G0 F10200 X105.000 Y92.867
G1 F900 X105.000 Y123.846 E836.27433
G0 F10200 X105.000 Y123.088
G0 X103.000 Y123.088
G0 X103.000 Y123.846
G1 F900 X103.000 Y86.067 E837.53086
G0 F10200 X103.259 Y87.000
G1 F900 X78.643 Y87.000 E838.34959
G0 F10200 X79.401 Y87.000
G0 X79.401 Y85.000
G0 X78.643 Y85.000
G1 F900 X102.659 Y85.000 E839.14837
G0 F10200 X101.901 Y85.008
G0 X101.417 Y84.274
G0 X101.301 Y83.008
G0 X102.059 Y83.000
G1 F900 X78.443 Y83.000 E839.93384
G0 F10200 X79.201 Y83.000
G0 X79.285 Y81.502
G0 X79.001 Y81.000
G0 X78.243 Y81.000
G1 F900 X101.459 Y81.000 E840.70601
G0 F10200 X100.701 Y81.008
G0 X100.817 Y82.274
G0 X102.817 Y88.874
G0 X103.101 Y89.008
G0 X103.859 Y89.000
G1 F900 X78.843 Y89.000 E841.53804
G0 F10200 X79.601 Y89.000
G0 X79.579 Y90.316
G0 X79.000 Y90.807
G1 F900 X79.000 Y65.730 E842.37211
G0 F10200 X79.000 Y66.488
G0 X78.601 Y75.000
G0 X77.843 Y75.000
G1 F900 X99.659 Y75.000 E843.09771
G0 F10200 X98.901 Y75.008
G0 X99.017 Y76.274
G0 X99.501 Y77.008
G0 X100.259 Y77.000
G1 F900 X78.043 Y77.000 E843.83662
G0 F10200 X78.801 Y77.000
G0 X79.001 Y79.000
G0 X78.243 Y79.000
G1 F900 X100.859 Y79.000 E844.58883
G0 F10200 X101.000 Y79.467
G1 F900 X101.000 Y123.846 E846.06488
G0 F10200 X101.000 Y123.088
G0 X107.901 Y105.208
G0 X108.659 Y105.000
G1 F900 X79.843 Y105.000 E847.02330
G0 F10200 X80.601 Y105.000
G0 X80.685 Y102.702
G0 X80.379 Y102.516
G0 X79.792 Y103.000
G1 F900 X108.059 Y103.000 E847.96347
G0 F10200 X107.301 Y103.208
G0 X107.017 Y103.074
G0 X106.701 Y101.208
G0 X107.459 Y101.000
G1 F900 X79.643 Y101.000 E848.88863
G0 F10200 X80.401 Y101.000
G0 X79.801 Y91.000
G0 X79.043 Y91.000
G1 F900 X104.459 Y91.000 E849.73397
;LAYER:1
M106 S5
G1 F2100 E843.23397
G1 Z1.605
G0 F10200 X95.601 Y66.577 Z1.510
;TYPE:WALL-OUTER
G1 Z1.510
G1 F2100 E849.73397
G1 F1080 X95.606 Y66.606 E849.73495
G1 X78.828 Y66.608 E850.29159
G1 X78.800 Y66.432 E850.29750
G1 X78.800 Y66.006 E850.31164
G1 X95.448 Y66.006 E850.86397
G1 X95.601 Y66.577 E850.88358
G0 F10200 X95.377 Y66.287
;TYPE:SKIN
G1 F1080 X95.075 Y66.305 E850.89198
G1 X94.511 Y66.305 E850.90699
G1 X93.947 Y66.305 E850.92200
G1 X93.382 Y66.305 E850.93698
G1 X92.818 Y66.305 E850.95199
G1 X92.254 Y66.305 E850.96700
G1 X91.690 Y66.305 E850.98200
G1 X91.125 Y66.305 E850.99699
G1 X90.561 Y66.305 E851.01200
G1 X89.997 Y66.305 E851.02700
G1 X89.433 Y66.305 E851.04201
G1 X88.868 Y66.305 E851.05700
G1 X88.304 Y66.305 E851.07201
G1 X87.740 Y66.305 E851.08701
G1 X87.175 Y66.305 E851.10205
G1 X86.611 Y66.306 E851.11710
G1 X86.047 Y66.306 E851.13215
G1 X85.482 Y66.306 E851.14723
G1 X84.918 Y66.306 E851.16229
G1 X84.354 Y66.306 E851.17734
G1 X83.790 Y66.306 E851.19240
G1 X83.225 Y66.306 E851.20748
G1 X82.661 Y66.306 E851.22253
G1 X82.097 Y66.306 E851.23758
G1 X81.533 Y66.306 E851.25264
G1 X80.968 Y66.306 E851.26772
G1 X80.404 Y66.306 E851.28277
G1 X79.840 Y66.306 E851.29783
G1 X79.275 Y66.306 E851.31291
G1 X78.939 Y66.361 E851.32420
G0 F10200 X79.000 Y67.447
;TYPE:SUPPORT
G1 F1320 X79.000 Y81.560 E851.79243
G0 F10200 X79.112 Y81.449
G0 X81.000 Y67.607
G0 X81.000 Y67.447
G1 F1320 X81.000 Y111.960 E853.26924
G0 F10200 X81.112 Y111.849
G0 X83.000 Y123.088
G0 X83.000 Y123.247
G1 F1320 X83.000 Y67.447 E855.12051
G0 F10200 X83.000 Y67.607
G0 X85.000 Y67.607
G0 X85.000 Y67.447
G1 F1320 X85.000 Y123.247 E856.97179
G0 F10200 X85.000 Y123.088
G0 X87.000 Y123.088
G0 X87.000 Y123.247
G1 F1320 X87.000 Y67.447 E858.82306
G0 F10200 X87.000 Y67.607
G0 X89.000 Y67.606
G0 X89.000 Y67.446
G1 F1320 X89.000 Y123.247 E860.67437
G0 F10200 X89.000 Y123.088
G0 X91.000 Y123.088
G0 X91.000 Y123.247
G1 F1320 X91.000 Y67.446 E862.52568
G0 F10200 X91.000 Y67.606
G0 X93.000 Y67.606
G0 X93.000 Y67.446
G1 F1320 X93.000 Y123.247 E864.37699
G0 F10200 X93.000 Y123.088
G0 X95.000 Y123.088
G0 X95.000 Y123.247
G1 F1320 X95.000 Y67.446 E866.22830
G0 F10200 X95.000 Y67.606
G0 X96.889 Y68.426
G0 X97.000 Y68.314
G1 F1320 X97.000 Y123.247 E868.05081
G0 F10200 X97.000 Y123.088
G0 X99.000 Y123.088
G0 X99.000 Y123.247
G1 F1320 X99.000 Y74.914 E869.65435
G0 F10200 X98.889 Y75.026
G0 X99.017 Y76.274
G0 X100.617 Y81.674
G0 X100.889 Y81.826
G0 X101.000 Y81.714
G1 F1320 X101.000 Y123.247 E871.03229
G0 F10200 X101.000 Y123.088
G0 X103.000 Y123.088
G0 X103.000 Y123.247
G1 F1320 X103.000 Y88.314 E872.19127
G0 F10200 X102.889 Y88.426
G0 X103.417 Y90.874
G0 X104.617 Y95.074
G0 X104.889 Y95.226
G0 X105.000 Y95.114
G1 F1320 X105.000 Y123.247 E873.12463
G0 F10200 X105.000 Y123.088
G0 X107.000 Y123.088
G0 X107.000 Y123.247
G1 F1320 X107.000 Y101.714 E873.83903
G0 F10200 X106.889 Y101.826
G0 X107.417 Y104.274
G0 X108.617 Y108.274
G0 X108.889 Y108.426
G0 X109.000 Y108.314
G1 F1320 X109.000 Y123.247 E874.33447
G0 F10200 X109.000 Y123.088
G0 X111.000 Y123.088
G0 X111.000 Y123.247
G1 F1320 X111.000 Y115.114 E874.60429
;LAYER:2
M106 S12
G1 F2100 E868.10429
G1 Z1.585
G0 F10200 X94.315 Y66.596 Z1.710
;TYPE:FILL
G1 Z1.710
G1 F2100 E874.60429
G1 F1740 X94.126 Y66.407 E874.61316
G0 F10200 X93.183 Y66.596
G1 F1740 X92.995 Y66.407 E874.62201
G0 F10200 X92.052 Y66.596
G1 F1740 X91.863 Y66.407 E874.63087
G0 F10200 X90.921 Y66.596
G1 F1740 X90.732 Y66.407 E874.63974
G0 F10200 X89.789 Y66.596
G1 F1740 X89.601 Y66.407 E874.64859
G0 F10200 X88.658 Y66.596
G1 F1740 X88.469 Y66.407 E874.65745
G0 F10200 X87.527 Y66.596
G1 F1740 X87.338 Y66.407 E874.66632
G0 F10200 X86.396 Y66.597
G1 F1740 X86.206 Y66.407 E874.67524
G0 F10200 X85.265 Y66.597
G1 F1740 X85.075 Y66.407 E874.68415
G0 F10200 X84.133 Y66.597
G1 F1740 X83.944 Y66.407 E874.69304
G0 F10200 X83.002 Y66.597
G1 F1740 X82.812 Y66.407 E874.70196
G0 F10200 X81.870 Y66.597
G1 F1740 X81.681 Y66.407 E874.71085
G0 F10200 X80.739 Y66.597
G1 F1740 X80.550 Y66.407 E874.71974
G0 F10200 X79.608 Y66.597
G1 F1740 X79.418 Y66.407 E874.72865
G0 F10200 X79.205 Y66.738
;TYPE:WALL-INNER
G1 F1740 X79.199 Y66.268 E874.74425
G1 X95.142 Y66.268 E875.27319
G1 X95.268 Y66.737 E875.28930
G1 X79.205 Y66.738 E875.82222
G0 F10200 X78.800 Y66.725
;TYPE:WALL-OUTER
G1 F1320 X78.800 Y65.869 E875.85062
G1 X95.448 Y65.869 E876.40295
G1 X95.730 Y66.919 E876.43902
G1 X95.771 Y67.133 E876.44625
G1 X78.864 Y67.137 E877.00718
G1 X78.800 Y66.725 E877.02101
G0 F10200 X79.667 Y66.407
;TYPE:SKIN
G1 F1320 X80.044 Y66.502 E877.02990
G1 X80.608 Y66.502 E877.03876
G1 X81.172 Y66.502 E877.04758
G1 X81.736 Y66.502 E877.05639
G1 X82.301 Y66.502 E877.06527
G1 X82.865 Y66.502 E877.07414
G1 X83.429 Y66.502 E877.08295
G1 X83.994 Y66.502 E877.09183
G1 X84.558 Y66.502 E877.10070
G1 X85.122 Y66.502 E877.10951
G1 X85.686 Y66.502 E877.11833
G1 X86.251 Y66.502 E877.12721
G1 X86.815 Y66.502 E877.13607
G1 X87.379 Y66.502 E877.14489
G1 X87.943 Y66.501 E877.15371
G1 X88.507 Y66.501 E877.16252
G1 X89.072 Y66.501 E877.17135
G1 X89.636 Y66.501 E877.18017
G1 X90.200 Y66.501 E877.18899
G1 X90.765 Y66.501 E877.19782
G1 X91.329 Y66.501 E877.20664
G1 X91.893 Y66.501 E877.21545
G1 X92.457 Y66.501 E877.22427
G1 X93.022 Y66.501 E877.23310
G1 X93.586 Y66.501 E877.24192
G1 X94.150 Y66.501 E877.25074
G1 X94.714 Y66.501 E877.25955
G1 X95.083 Y66.588 E877.27213
G0 F10200 X95.000 Y67.967
;TYPE:SUPPORT
G1 F1740 X95.000 Y123.247 E879.10615
G0 F10200 X95.000 Y123.088
G0 X93.000 Y123.088
G0 X93.000 Y123.247
G1 F1740 X93.000 Y67.968 E880.94014
G0 F10200 X93.000 Y68.136
G0 X91.000 Y68.136
G0 X91.000 Y67.969
G1 F1740 X91.000 Y123.247 E882.77410
G0 F10200 X91.000 Y123.088
G0 X89.000 Y123.088
G0 X89.000 Y123.247
G1 F1740 X89.000 Y67.970 E884.60803
G0 F10200 X89.000 Y68.136
G0 X87.000 Y68.136
G0 X87.000 Y67.971
G1 F1740 X87.000 Y123.247 E886.44192
G0 F10200 X87.000 Y123.088
G0 X85.000 Y123.088
G0 X85.000 Y123.247
G1 F1740 X85.000 Y67.973 E888.27574
G0 F10200 X85.000 Y68.136
G0 X83.000 Y68.136
G0 X83.000 Y67.974
G1 F1740 X83.000 Y123.247 E890.10953
G0 F10200 X83.000 Y123.088
G0 X97.000 Y123.088
G0 X97.000 Y123.247
G1 F1740 X97.000 Y67.966 E891.94359
G0 F10200 X96.991 Y68.126
G0 X96.817 Y68.874
G0 X98.617 Y74.874
G0 X98.889 Y75.026
G0 X99.000 Y74.914
G1 F1740 X99.000 Y123.247 E893.54713
G0 F10200 X99.000 Y123.088
G0 X101.000 Y123.088
G0 X101.000 Y123.247
G1 F1740 X101.000 Y81.714 E894.92507
G0 F10200 X100.889 Y81.826
G0 X102.217 Y86.874
G0 X102.889 Y88.426
G0 X103.000 Y88.314
G1 F1740 X103.000 Y123.247 E896.08404
G0 F10200 X103.000 Y123.088
G0 X105.000 Y123.088
G0 X105.000 Y123.247
G1 F1740 X105.000 Y95.114 E897.01741
G0 F10200 X104.889 Y95.226
G0 X106.217 Y100.274
G0 X106.889 Y101.826
G0 X107.000 Y101.714
G1 F1740 X107.000 Y123.247 E897.73181
G0 F10200 X107.000 Y123.088
G0 X109.000 Y123.088
G0 X109.000 Y123.247
G1 F1740 X109.000 Y108.314 E898.22724
G0 F10200 X108.889 Y108.426
G0 X109.017 Y109.674
G0 X110.617 Y115.074
G0 X110.889 Y115.226
G0 X111.000 Y115.114
G1 F1740 X111.000 Y123.247 E898.49707
G0 F10200 X111.000 Y123.088
G0 X81.112 Y111.849
G0 X81.000 Y111.960
G1 F1740 X81.000 Y67.975 E899.95636
G0 F10200 X81.000 Y68.136
G0 X79.000 Y68.136
G0 X79.000 Y67.976
G1 F1740 X79.000 Y81.560 E900.40704
;LAYER:3
M106 S17
G1 F2100 E893.90704
G1 Z1.785
G0 F10200 X79.618 Y66.869 Z1.910
;TYPE:WALL-INNER
G1 Z1.910
G1 F2100 E900.40704
G1 F2160 X79.612 Y66.530 E900.41829
G1 X94.752 Y66.529 E900.92059
G1 X94.835 Y66.529 E900.92334
G1 X94.926 Y66.868 E900.93499
G1 X79.618 Y66.869 E901.44286
G0 F10200 X79.223 Y67.149
G1 F2160 X79.206 Y66.131 E901.47664
G1 X95.142 Y66.131 E902.00535
G1 X95.448 Y67.267 E902.04438
G1 X79.241 Y67.268 E902.58208
G1 X79.223 Y67.149 E902.58607
G0 F10200 X78.825 Y67.177
;TYPE:WALL-OUTER
G1 F1500 X78.800 Y65.732 E902.63402
G1 X95.448 Y65.732 E903.18635
G1 X95.856 Y67.249 E903.23847
G1 X95.938 Y67.666 E903.25257
G1 X78.898 Y67.667 E903.81790
G1 X78.825 Y67.177 E903.83434
G0 F10200 X79.000 Y68.506
;TYPE:SUPPORT
G1 F2160 X79.000 Y81.560 E904.26743
G0 F10200 X79.112 Y81.449
G0 X81.000 Y68.666
G0 X81.000 Y68.506
G1 F2160 X81.000 Y111.960 E905.70910
G0 F10200 X81.112 Y111.849
G0 X83.000 Y123.088
G0 X83.000 Y123.247
G1 F2160 X83.000 Y68.506 E907.52525
G0 F10200 X83.000 Y68.666
G0 X85.000 Y68.666
G0 X85.000 Y68.506
G1 F2160 X85.000 Y123.247 E909.34139
G0 F10200 X85.000 Y123.088
G0 X87.000 Y123.088
G0 X87.000 Y123.247
G1 F2160 X87.000 Y68.506 E911.15753
G0 F10200 X87.000 Y68.666
G0 X89.000 Y68.666
G0 X89.000 Y68.506
G1 F2160 X89.000 Y123.247 E912.97367
G0 F10200 X89.000 Y123.088
G0 X91.000 Y123.088
G0 X91.000 Y123.247
G1 F2160 X91.000 Y68.506 E914.78981
G0 F10200 X91.000 Y68.666
G0 X93.000 Y68.666
G0 X93.000 Y68.506
G1 F2160 X93.000 Y123.247 E916.60595
G0 F10200 X93.000 Y123.088
G0 X95.000 Y123.088
G0 X95.000 Y123.247
G1 F2160 X95.000 Y68.506 E918.42209
G0 F10200 X95.000 Y68.666
G0 X97.000 Y68.666
G0 X97.000 Y68.506
G1 F2160 X97.000 Y123.247 E920.23823
G0 F10200 X97.000 Y123.088
G0 X99.000 Y123.088
G0 X99.000 Y123.247
G1 F2160 X99.000 Y74.914 E921.84178
G0 F10200 X98.889 Y75.026
G0 X99.017 Y76.274
G0 X100.617 Y81.674
G0 X100.889 Y81.826
G0 X101.000 Y81.714
G1 F2160 X101.000 Y123.247 E923.21972
G0 F10200 X101.000 Y123.088
G0 X103.000 Y123.088
G0 X103.000 Y123.247
G1 F2160 X103.000 Y88.314 E924.37869
G0 F10200 X102.889 Y88.426
G0 X103.417 Y90.874
G0 X104.617 Y95.074
G0 X104.889 Y95.226
G0 X105.000 Y95.114
G1 F2160 X105.000 Y123.247 E925.31206
G0 F10200 X105.000 Y123.088
G0 X107.000 Y123.088
G0 X107.000 Y123.247
G1 F2160 X107.000 Y101.714 E926.02646
G0 F10200 X106.889 Y101.826
G0 X107.417 Y104.274
G0 X108.617 Y108.274
G0 X108.889 Y108.426
G0 X109.000 Y108.314
G1 F2160 X109.000 Y123.247 E926.52189
G0 F10200 X109.000 Y123.088
G0 X111.000 Y123.088
G0 X111.000 Y123.247
G1 F2160 X111.000 Y115.114 E926.79172
;LAYER:4
M106 S25
G1 F2100 E920.29172
G1 Z1.985
G0 F10200 X95.105 Y67.396 Z2.110
;TYPE:WALL-INNER
G1 Z2.110
G1 F2100 E926.79172
G1 F2700 X79.643 Y67.398 E927.30470
G1 X79.603 Y66.662 E927.32915
G1 X94.575 Y66.666 E927.82588
G1 X94.908 Y66.663 E927.83693
G1 X95.105 Y67.396 E927.86211
G0 F10200 X95.598 Y67.688
G1 F2700 X95.621 Y67.795 E927.86574
G1 X79.277 Y67.797 E928.40799
G1 X79.257 Y67.662 E928.41251
G1 X79.199 Y66.595 E928.44797
G1 X79.199 Y66.263 E928.45898
G1 X94.573 Y66.267 E928.96904
G1 X95.214 Y66.261 E928.99031
G1 X95.598 Y67.688 E929.03934
G0 F10200 X95.985 Y67.594
;TYPE:WALL-OUTER
G1 F1800 X96.103 Y68.194 E929.05963
G1 X78.934 Y68.196 E929.62924
G1 X78.860 Y67.702 E929.64581
G1 X78.800 Y66.597 E929.68253
G1 X78.800 Y65.596 E929.71574
G1 X79.404 Y65.594 E929.73578
G1 X79.450 Y65.864 E929.74486
G1 X94.571 Y65.868 E930.24653
G1 X94.861 Y65.865 E930.25616
G1 X94.878 Y65.637 E930.26374
G1 X94.868 Y65.595 E930.26517
G1 X95.448 Y65.595 E930.28442
G1 X95.985 Y67.594 E930.35309
G0 F10200 X94.824 Y66.893
;TYPE:SKIN
G1 F1800 X94.678 Y67.029 E930.35730
G1 X94.113 Y67.029 E930.37849
G1 X93.549 Y67.029 E930.39964
G1 X92.985 Y67.029 E930.42084
G1 X92.421 Y67.029 E930.44204
G1 X91.856 Y67.029 E930.46322
G1 X91.292 Y67.029 E930.48437
G1 X90.728 Y67.029 E930.50557
G1 X90.164 Y67.029 E930.52677
G1 X89.599 Y67.029 E930.54796
G1 X89.035 Y67.029 E930.56915
G1 X88.470 Y67.029 E930.59039
G1 X87.906 Y67.029 E930.61159
G1 X87.342 Y67.029 E930.63278
G1 X86.778 Y67.029 E930.65398
G1 X86.213 Y67.029 E930.67522
G1 X85.649 Y67.029 E930.69641
G1 X85.085 Y67.029 E930.71761
G1 X84.521 Y67.029 E930.73890
G1 X83.957 Y67.029 E930.76019
G1 X83.392 Y67.029 E930.78152
G1 X82.828 Y67.029 E930.80281
G1 X82.264 Y67.029 E930.82410
G1 X81.699 Y67.029 E930.84543
G1 X81.135 Y67.029 E930.86672
G1 X80.571 Y67.029 E930.88802
G1 X79.913 Y66.935 E930.90929
G1 X79.952 Y67.257 E930.92005
G1 F2100 E924.42005
G1 Z2.185
G0 F10200 X79.000 Y69.035
;TYPE:SUPPORT
G1 Z2.110
G1 F2100 E930.92005
G1 F2700 X79.000 Y81.560 E931.33560
G0 F10200 X79.112 Y81.449
G0 X81.000 Y69.195
G0 X81.000 Y69.035
G1 F2700 X81.000 Y111.960 E932.75972
G0 F10200 X81.112 Y111.849
G0 X83.000 Y123.088
G0 X83.000 Y123.247
G1 F2700 X83.000 Y69.035 E934.55831
G0 F10200 X83.000 Y69.195
G0 X85.000 Y69.195
G0 X85.000 Y69.035
G1 F2700 X85.000 Y123.247 E936.35690
G0 F10200 X85.000 Y123.088
G0 X87.000 Y123.088
G0 X87.000 Y123.247
G1 F2700 X87.000 Y69.035 E938.15549
G0 F10200 X87.000 Y69.195
G0 X89.000 Y69.194
G0 X89.000 Y69.034
G1 F2700 X89.000 Y123.247 E939.95411
G0 F10200 X89.000 Y123.088
G0 X91.000 Y123.088
G0 X91.000 Y123.247
G1 F2700 X91.000 Y69.034 E941.75274
G0 F10200 X91.000 Y69.194
G0 X93.000 Y69.194
G0 X93.000 Y69.034
G1 F2700 X93.000 Y123.247 E943.55136
G0 F10200 X93.000 Y123.088
G0 X95.000 Y123.088
G0 X95.000 Y123.247
G1 F2700 X95.000 Y69.034 E945.34999
G0 F10200 X95.000 Y69.194
G0 X96.888 Y69.425
G0 X97.000 Y69.314
G1 F2700 X97.000 Y123.247 E947.13932
G0 F10200 X97.000 Y123.088
G0 X99.000 Y123.088
G0 X99.000 Y123.247
G1 F2700 X99.000 Y74.914 E948.74286
G0 F10200 X98.889 Y75.026
G0 X99.017 Y76.274
G0 X100.617 Y81.674
G0 X100.889 Y81.826
G0 X101.000 Y81.714
G1 F2700 X101.000 Y123.247 E950.12080
G0 F10200 X101.000 Y123.088
G0 X103.000 Y123.088
G0 X103.000 Y123.247
G1 F2700 X103.000 Y88.314 E951.27977
G0 F10200 X102.889 Y88.426
G0 X103.417 Y90.874
G0 X104.617 Y95.074
G0 X104.889 Y95.226
G0 X105.000 Y95.114
G1 F2700 X105.000 Y123.247 E952.21314
G0 F10200 X105.000 Y123.088
G0 X107.000 Y123.088
G0 X107.000 Y123.247
G1 F2700 X107.000 Y101.714 E952.92754
G0 F10200 X106.889 Y101.826
G0 X107.417 Y104.274
G0 X108.617 Y108.274
G0 X108.889 Y108.426
G0 X109.000 Y108.314
G1 F2700 X109.000 Y123.247 E953.42298
G0 F10200 X109.000 Y123.088
G0 X111.000 Y123.088
G0 X111.000 Y123.247
G1 F2700 X111.000 Y115.114 E953.69280
;LAYER:5
M106 S30
G1 F2100 E947.19280
G1 Z2.185
G0 F10200 X95.285 Y67.927 Z2.310
;TYPE:WALL-INNER
G1 Z2.310
G1 F2100 E953.69280
G1 F2700 X79.668 Y67.928 E954.21093
G1 X79.632 Y67.166 E954.23624
G1 X94.470 Y67.170 E954.72852
G1 X95.081 Y67.167 E954.74879
G1 X95.285 Y67.927 E954.77490
G0 F10200 X95.725 Y68.023
G1 F2700 X95.792 Y68.324 E954.78513
G1 X79.314 Y68.327 E955.33182
G1 X79.268 Y67.948 E955.34448
G1 X79.213 Y66.767 E955.38371
G1 X94.469 Y66.771 E955.88986
G1 X95.368 Y66.766 E955.91968
G1 X95.373 Y66.714 E955.92142
G1 X95.725 Y68.023 E955.96639
G0 F10200 X96.115 Y67.937
;TYPE:WALL-OUTER
G1 F1800 X96.231 Y68.463 E955.98426
G1 X96.264 Y68.723 E955.99295
G1 X78.974 Y68.726 E956.56658
G1 X78.893 Y68.215 E956.58375
G1 X78.871 Y67.978 E956.59164
G1 X78.800 Y66.471 E956.64170
G1 X78.800 Y65.459 E956.67527
G1 X79.402 Y65.457 E956.69525
G1 X79.402 Y65.865 E956.70878
G1 X79.482 Y66.368 E956.72568
G1 X94.468 Y66.372 E957.22287
G1 X95.004 Y66.369 E957.24065
G1 X95.027 Y66.118 E957.24902
G1 X94.872 Y65.458 E957.27151
G1 X95.448 Y65.458 E957.29062
G1 X96.115 Y67.937 E957.37579
G0 F10200 X95.081 Y67.711
;TYPE:SKIN
G1 F1800 X94.963 Y67.547 E957.37933
G1 X94.399 Y67.547 E957.40180
G1 X93.834 Y67.547 E957.42430
G1 X93.270 Y67.547 E957.44676
G1 X92.706 Y67.547 E957.46923
G1 X92.141 Y67.547 E957.49168
G1 X91.577 Y67.547 E957.51415
G1 X91.013 Y67.547 E957.53661
G1 X90.449 Y67.547 E957.55907
G1 X89.885 Y67.546 E957.58154
G1 X89.320 Y67.546 E957.60409
G1 X88.756 Y67.546 E957.62665
G1 X88.192 Y67.546 E957.64920
G1 X87.627 Y67.546 E957.67175
G1 X87.063 Y67.546 E957.69431
G1 X86.499 Y67.546 E957.71687
G1 X85.935 Y67.546 E957.73938
G1 X85.370 Y67.546 E957.76193
G1 X84.806 Y67.546 E957.78449
G1 X84.242 Y67.546 E957.80704
G1 X83.678 Y67.546 E957.82960
G1 X83.114 Y67.546 E957.85216
G1 X82.549 Y67.546 E957.87471
G1 X81.985 Y67.546 E957.89727
G1 X81.421 Y67.546 E957.91982
G1 X80.856 Y67.546 E957.94237
G1 X80.292 Y67.546 E957.96493
G1 X79.799 Y67.757 E957.98272
G1 F2100 E951.48272
G1 Z2.385
G0 F10200 X79.000 Y69.566
;TYPE:SUPPORT
G1 Z2.310
G1 F2100 E957.98272
G1 F2700 X79.000 Y81.560 E958.38065
G0 F10200 X79.112 Y81.449
G0 X81.000 Y69.726
G0 X81.000 Y69.566
G1 F2700 X81.000 Y111.960 E959.78715
G0 F10200 X81.112 Y111.849
G0 X83.000 Y123.088
G0 X83.000 Y123.247
G1 F2700 X83.000 Y69.565 E961.56816
G0 F10200 X83.000 Y69.725
G0 X85.000 Y69.725
G0 X85.000 Y69.565
G1 F2700 X85.000 Y123.247 E963.34917
G0 F10200 X85.000 Y123.088
G0 X87.000 Y123.088
G0 X87.000 Y123.247
G1 F2700 X87.000 Y69.565 E965.13017
G0 F10200 X87.000 Y69.725
G0 X89.000 Y69.724
G0 X89.000 Y69.564
G1 F2700 X89.000 Y123.247 E966.91121
G0 F10200 X89.000 Y123.088
G0 X91.000 Y123.088
G0 X91.000 Y123.247
G1 F2700 X91.000 Y69.564 E968.69225
G0 F10200 X91.000 Y69.724
G0 X93.000 Y69.723
G0 X93.000 Y69.563
G1 F2700 X93.000 Y123.247 E970.47333
G0 F10200 X93.000 Y123.088
G0 X95.000 Y123.088
G0 X95.000 Y123.247
G1 F2700 X95.000 Y69.563 E972.25440
G0 F10200 X95.000 Y69.723
G0 X96.887 Y69.824
G0 X97.000 Y69.714
G1 F2700 X97.000 Y123.247 E974.03046
G0 F10200 X97.000 Y123.088
G0 X99.000 Y123.088
G0 X99.000 Y123.247
G1 F2700 X99.000 Y74.914 E975.63401
G0 F10200 X98.889 Y75.026
G0 X99.017 Y76.274
G0 X100.617 Y81.674
G0 X100.889 Y81.826
G0 X101.000 Y81.714
G1 F2700 X101.000 Y123.247 E977.01195
G0 F10200 X101.000 Y123.088
G0 X103.000 Y123.088
G0 X103.000 Y123.247
G1 F2700 X103.000 Y88.314 E978.17092
G0 F10200 X102.889 Y88.426
G0 X103.417 Y90.874
G0 X104.617 Y95.074
G0 X104.889 Y95.226
G0 X105.000 Y95.114
G1 F2700 X105.000 Y123.247 E979.10429
G0 F10200 X105.000 Y123.088
G0 X107.000 Y123.088
G0 X107.000 Y123.247
G1 F2700 X107.000 Y101.714 E979.81869
G0 F10200 X106.889 Y101.826
G0 X107.417 Y104.274
G0 X108.617 Y108.274
G0 X108.889 Y108.426
G0 X109.000 Y108.314
G1 F2700 X109.000 Y123.247 E980.31412
G0 F10200 X109.000 Y123.088
G0 X111.000 Y123.088
G0 X111.000 Y123.247
G1 F2700 X111.000 Y115.114 E980.58395
;LAYER:6
M106 S38
G1 F2100 E974.08395
G1 Z2.385
G0 F10200 X95.465 Y68.455 Z2.510
;TYPE:WALL-INNER
G1 Z2.510
G1 F2100 E980.58395
G1 F2700 X94.771 Y68.456 E980.60697
G1 X79.708 Y68.457 E981.10672
G1 X79.658 Y67.673 E981.13278
G1 X94.365 Y67.674 E981.62071
G1 X95.254 Y67.672 E981.65021
G1 X95.465 Y68.455 E981.67711
G0 F10200 X95.248 Y67.274
G1 F2700 X95.483 Y66.986 E981.68944
G1 X95.862 Y68.393 E981.73779
G1 X95.965 Y68.853 E981.75343
G1 X79.351 Y68.856 E982.30463
G1 X79.273 Y68.020 E982.33249
G1 X79.240 Y67.274 E982.35726
G1 X94.364 Y67.275 E982.85903
G1 X95.248 Y67.274 E982.88836
G0 F10200 X95.058 Y66.875
;TYPE:WALL-OUTER
G1 F1800 X95.166 Y66.744 E982.89399
G1 X95.177 Y66.624 E982.89799
G1 X95.112 Y66.243 E982.91081
G1 X94.872 Y65.322 E982.94239
G1 X95.448 Y65.321 E982.96150
G1 X96.245 Y68.281 E983.06320
G1 X96.367 Y68.823 E983.08163
G1 X96.426 Y69.235 E983.09544
G1 X96.427 Y69.252 E983.09600
G1 X79.010 Y69.255 E983.67385
G1 X78.929 Y68.740 E983.69114
G1 X78.875 Y68.058 E983.71384
G1 X78.800 Y66.334 E983.77109
G1 X78.800 Y65.322 E983.80467
G1 X79.402 Y65.320 E983.82464
G1 X79.402 Y66.157 E983.85241
G1 X79.488 Y66.700 E983.87065
G1 X79.537 Y66.875 E983.87668
G1 X95.058 Y66.875 E984.39162
G0 F10200 X94.615 Y67.812
;TYPE:SKIN
G1 F1800 X94.834 Y68.315 E984.41516
G1 X94.019 Y68.063 E984.43871
G1 X93.455 Y68.063 E984.46225
G1 X92.891 Y68.063 E984.48579
G1 X92.326 Y68.063 E984.50933
G1 X91.762 Y68.063 E984.53287
G1 X91.198 Y68.063 E984.55641
G1 X90.634 Y68.063 E984.57996
G1 X90.069 Y68.063 E984.60354
G1 X89.505 Y68.063 E984.62708
G1 X88.941 Y68.063 E984.65062
G1 X88.377 Y68.063 E984.67417
G1 X87.812 Y68.063 E984.69775
G1 X87.248 Y68.063 E984.72129
G1 X86.684 Y68.063 E984.74483
G1 X86.120 Y68.063 E984.76838
G1 X85.555 Y68.063 E984.79196
G1 X84.991 Y68.064 E984.81550
G1 X84.427 Y68.064 E984.83909
G1 X83.863 Y68.064 E984.86268
G1 X83.298 Y68.064 E984.88626
G1 X82.734 Y68.064 E984.90985
G1 X82.170 Y68.064 E984.93344
G1 X81.606 Y68.064 E984.95703
G1 X81.041 Y68.064 E984.98062
G1 X80.477 Y68.064 E985.00420
G1 X79.944 Y67.812 E985.02376
G1 F2100 E978.52376
G1 Z2.585
G0 F10200 X79.000 Y70.095
;TYPE:SUPPORT
G1 Z2.510
G1 F2100 E985.02376
G1 F2700 X79.000 Y81.560 E985.40414
G0 F10200 X79.112 Y81.449
G0 X81.000 Y70.255
G0 X81.000 Y70.095
G1 F2700 X81.000 Y111.960 E986.79309
G0 F10200 X81.112 Y111.849
G0 X83.000 Y123.088
G0 X83.000 Y123.247
G1 F2700 X83.000 Y70.094 E988.55655
G0 F10200 X83.000 Y70.254
G0 X85.000 Y70.254
G0 X85.000 Y70.094
G1 F2700 X85.000 Y123.247 E990.32001
G0 F10200 X85.000 Y123.088
G0 X87.000 Y123.088
G0 X87.000 Y123.247
G1 F2700 X87.000 Y70.094 E992.08346
G0 F10200 X87.000 Y70.254
G0 X89.000 Y70.253
G0 X89.000 Y70.093
G1 F2700 X89.000 Y123.247 E993.84695
G0 F10200 X89.000 Y123.088
G0 X91.000 Y123.088
G0 X91.000 Y123.247
G1 F2700 X91.000 Y70.093 E995.61044
G0 F10200 X91.000 Y70.253
G0 X93.000 Y70.252
G0 X93.000 Y70.092
G1 F2700 X93.000 Y123.247 E997.37396
G0 F10200 X93.000 Y123.088
G0 X95.000 Y123.088
G0 X95.000 Y123.247
G1 F2700 X95.000 Y70.092 E999.13749
G0 F10200 X95.000 Y70.252
G0 X96.891 Y70.228
G0 X97.000 Y70.114
G1 F2700 X97.000 Y123.247 E1000.90028
G0 F10200 X97.000 Y123.088
G0 X99.000 Y123.088
G0 X99.000 Y123.247
G1 F2700 X99.000 Y74.914 E1002.50382
G0 F10200 X98.889 Y75.026
G0 X99.017 Y76.274
G0 X100.617 Y81.674
G0 X100.889 Y81.826
G0 X101.000 Y81.714
G1 F2700 X101.000 Y123.247 E1003.88176
G0 F10200 X101.000 Y123.088
G0 X103.000 Y123.088
G0 X103.000 Y123.247
G1 F2700 X103.000 Y88.314 E1005.04073
G0 F10200 X102.889 Y88.426
G0 X103.417 Y90.874
G0 X104.617 Y95.074
G0 X104.889 Y95.226
G0 X105.000 Y95.114
G1 F2700 X105.000 Y123.247 E1005.97410
G0 F10200 X105.000 Y123.088
G0 X107.000 Y123.088
G0 X107.000 Y123.247
G1 F2700 X107.000 Y101.714 E1006.68850
G0 F10200 X106.889 Y101.826
G0 X107.417 Y104.274
G0 X108.617 Y108.274
G0 X108.889 Y108.426
G0 X109.000 Y108.314
G1 F2700 X109.000 Y123.247 E1007.18393
G0 F10200 X109.000 Y123.088
G0 X111.000 Y123.088
G0 X111.000 Y123.247
G1 F2700 X111.000 Y115.114 E1007.45376
;LAYER:7
M106 S45
G1 F2100 E1000.95376
G1 Z2.585
G0 F10200 X95.639 Y68.984 Z2.710
;TYPE:WALL-INNER
G1 Z2.710
G1 F2100 E1007.45376
G1 F2700 X79.741 Y68.987 E1007.98121
G1 X79.691 Y68.176 E1008.00817
G1 X94.263 Y68.178 E1008.49162
G1 X95.411 Y68.177 E1008.52971
G1 X95.425 Y68.168 E1008.53026
G1 X95.605 Y68.838 E1008.55328
G1 X95.639 Y68.984 E1008.55825
G0 F10200 X95.290 Y67.778
G1 F2700 X95.666 Y67.528 E1008.57323
G1 X95.985 Y68.714 E1008.61398
G1 X96.107 Y69.238 E1008.63183
G1 X96.130 Y69.383 E1008.63670
G1 X79.385 Y69.386 E1009.19225
G1 X79.316 Y68.706 E1009.21492
G1 X79.273 Y67.777 E1009.24578
G1 X95.290 Y67.778 E1009.77717
G0 F10200 X95.308 Y67.287
;TYPE:WALL-OUTER
G1 F1800 X95.326 Y67.089 E1009.78377
G1 X95.237 Y66.585 E1009.80075
G1 X94.872 Y65.185 E1009.84875
G1 X95.448 Y65.184 E1009.86786
G1 X96.374 Y68.624 E1009.98605
G1 X96.497 Y69.153 E1010.00407
G1 X96.578 Y69.664 E1010.02124
G1 X96.585 Y69.782 E1010.02516
G1 X79.042 Y69.785 E1010.60718
G1 X78.964 Y69.267 E1010.62456
G1 X78.919 Y68.749 E1010.64181
G1 X78.800 Y66.197 E1010.72657
G1 X78.800 Y65.185 E1010.76015
G1 X79.395 Y65.184 E1010.77989
G1 X79.402 Y66.262 E1010.81565
G1 X79.416 Y66.541 E1010.82492
G1 X79.521 Y67.189 E1010.84670
G1 X79.554 Y67.378 E1010.85306
G1 X95.169 Y67.379 E1011.37112
G1 X95.308 Y67.287 E1011.37665
G0 F10200 X95.040 Y68.316
;TYPE:SKIN
G1 F1800 X94.494 Y68.580 E1011.40141
G1 X93.930 Y68.580 E1011.42613
G1 X93.365 Y68.580 E1011.45084
G1 X92.801 Y68.580 E1011.47555
G1 X92.236 Y68.580 E1011.50036
G1 X91.672 Y68.580 E1011.52517
G1 X91.108 Y68.580 E1011.54998
G1 X90.543 Y68.580 E1011.57478
G1 X89.979 Y68.580 E1011.59959
G1 X89.415 Y68.580 E1011.62440
G1 X88.850 Y68.581 E1011.64920
G1 X88.286 Y68.581 E1011.67401
G1 X87.722 Y68.581 E1011.69882
G1 X87.158 Y68.581 E1011.72363
G1 X86.593 Y68.581 E1011.74843
G1 X86.029 Y68.581 E1011.77324
G1 X85.465 Y68.581 E1011.79805
G1 X84.900 Y68.581 E1011.82290
G1 X84.336 Y68.581 E1011.84771
G1 X83.772 Y68.581 E1011.87252
G1 X83.208 Y68.581 E1011.89733
G1 X82.643 Y68.581 E1011.92218
G1 X82.078 Y68.581 E1011.94703
G1 X81.514 Y68.581 E1011.97189
G1 X80.950 Y68.581 E1011.99674
G1 X80.385 Y68.581 E1012.02164
G1 X79.869 Y68.816 E1012.04046
G1 F2100 E1005.54046
G1 Z2.785
G0 F10200 X95.076 Y68.844
G1 Z2.710
G1 F2100 E1012.04046
G1 F1800 X95.379 Y68.541 E1012.05467
G0 F10200 X95.000 Y70.622
;TYPE:SUPPORT
G1 F2700 X95.000 Y123.247 E1013.80061
G0 F10200 X95.000 Y123.088
G0 X93.000 Y123.088
G0 X93.000 Y123.247
G1 F2700 X93.000 Y70.623 E1015.54652
G0 F10200 X93.000 Y70.782
G0 X91.000 Y70.783
G0 X91.000 Y70.623
G1 F2700 X91.000 Y123.247 E1017.29242
G0 F10200 X91.000 Y123.088
G0 X89.000 Y123.088
G0 X89.000 Y123.247
G1 F2700 X89.000 Y70.623 E1019.03833
G0 F10200 X89.000 Y70.783
G0 X87.000 Y70.784
G0 X87.000 Y70.624
G1 F2700 X87.000 Y123.247 E1020.78420
G0 F10200 X87.000 Y123.088
G0 X85.000 Y123.088
G0 X85.000 Y123.247
G1 F2700 X85.000 Y70.624 E1022.53007
G0 F10200 X85.000 Y70.784
G0 X83.000 Y70.785
G0 X83.000 Y70.625
G1 F2700 X83.000 Y123.247 E1024.27591
G0 F10200 X83.000 Y123.088
G0 X97.000 Y123.088
G0 X97.000 Y123.247
G1 F2700 X97.000 Y70.622 E1026.02185
G0 F10200 X97.000 Y70.782
G0 X98.889 Y75.026
G0 X99.000 Y74.914
G1 F2700 X99.000 Y123.247 E1027.62539
G0 F10200 X99.000 Y123.088
G0 X101.000 Y123.088
G0 X101.000 Y123.247
G1 F2700 X101.000 Y81.714 E1029.00333
G0 F10200 X100.889 Y81.826
G0 X102.217 Y86.874
G0 X102.889 Y88.426
G0 X103.000 Y88.314
G1 F2700 X103.000 Y123.247 E1030.16231
G0 F10200 X103.000 Y123.088
G0 X105.000 Y123.088
G0 X105.000 Y123.247
G1 F2700 X105.000 Y95.114 E1031.09567
G0 F10200 X104.889 Y95.226
G0 X106.217 Y100.274
G0 X106.889 Y101.826
G0 X107.000 Y101.714
G1 F2700 X107.000 Y123.247 E1031.81007
G0 F10200 X107.000 Y123.088
G0 X109.000 Y123.088
G0 X109.000 Y123.247
G1 F2700 X109.000 Y108.314 E1032.30551
G0 F10200 X108.889 Y108.426
G0 X109.017 Y109.674
G0 X110.617 Y115.074
G0 X110.889 Y115.226
G0 X111.000 Y115.114
G1 F2700 X111.000 Y123.247 E1032.57533
G0 F10200 X111.000 Y123.088
G0 X81.112 Y111.849
G0 X81.000 Y111.960
G1 F2700 X81.000 Y70.625 E1033.94670
G0 F10200 X81.000 Y70.785
G0 X79.000 Y70.785
G0 X79.000 Y70.625
G1 F2700 X79.000 Y81.560 E1034.30949
;LAYER:8
M106 S51
G1 F2100 E1027.80949
G1 Z2.785
G0 F10200 X79.776 Y69.516 Z2.910
;TYPE:WALL-INNER
G1 Z2.910
G1 F2100 E1034.30949
G1 F2700 X79.715 Y68.682 E1034.33724
G1 X95.585 Y68.682 E1034.86376
G1 X95.597 Y68.673 E1034.86425
G1 X95.734 Y69.180 E1034.88168
G1 X95.813 Y69.513 E1034.89303
G1 X79.776 Y69.516 E1035.42509
G0 F10200 X79.349 Y69.222
G1 F2700 X79.316 Y68.697 E1035.44254
G1 X79.297 Y68.283 E1035.45629
G1 X95.452 Y68.283 E1035.99227
G1 X95.823 Y68.005 E1036.00765
G1 X95.826 Y67.985 E1036.00832
G1 X96.115 Y69.059 E1036.04522
G1 X96.236 Y69.568 E1036.06258
G1 X96.298 Y69.912 E1036.07417
G1 X79.422 Y69.915 E1036.63407
G1 X79.349 Y69.222 E1036.65719
G0 F10200 X78.951 Y69.262
;TYPE:WALL-OUTER
G1 F1800 X78.918 Y68.722 E1036.67514
G1 X78.800 Y66.060 E1036.76354
G1 X78.800 Y65.048 E1036.79712
G1 X79.334 Y65.047 E1036.81483
G1 X79.403 Y65.047 E1036.81712
G1 X79.402 Y66.125 E1036.85289
G1 X79.432 Y66.804 E1036.87544
G1 X79.450 Y67.045 E1036.88345
G1 X79.554 Y67.690 E1036.90513
G1 X79.597 Y67.884 E1036.91172
G1 X95.319 Y67.884 E1037.43333
G1 X95.451 Y67.786 E1037.43878
G1 X95.476 Y67.604 E1037.44488
G1 X95.394 Y67.066 E1037.46293
G1 X94.871 Y65.048 E1037.53210
G1 X95.448 Y65.047 E1037.55124
G1 X96.503 Y68.967 E1037.68592
G1 X96.624 Y69.476 E1037.70328
G1 X96.715 Y69.980 E1037.72027
G1 X96.746 Y70.290 E1037.73061
G1 X96.746 Y70.311 E1037.73130
G1 X79.082 Y70.314 E1038.31734
G1 X79.000 Y69.800 E1038.33461
G1 X78.951 Y69.262 E1038.35253
G0 F10200 X79.868 Y68.865
;TYPE:SKIN
G1 F1800 X80.383 Y69.098 E1038.37646
G1 X80.947 Y69.098 E1038.40239
G1 X81.511 Y69.098 E1038.42833
G1 X82.076 Y69.098 E1038.45426
G1 X82.640 Y69.098 E1038.48019
G1 X83.204 Y69.097 E1038.50613
G1 X83.768 Y69.097 E1038.53206
G1 X84.332 Y69.097 E1038.55799
G1 X84.897 Y69.097 E1038.58393
G1 X85.461 Y69.097 E1038.60981
G1 X86.025 Y69.097 E1038.63575
G1 X86.589 Y69.097 E1038.66164
G1 X87.154 Y69.097 E1038.68757
G1 X87.718 Y69.097 E1038.71346
G1 X88.282 Y69.097 E1038.73934
G1 X88.846 Y69.097 E1038.76523
G1 X89.410 Y69.097 E1038.79107
G1 X89.974 Y69.097 E1038.81691
G1 X90.539 Y69.097 E1038.84275
G1 X91.103 Y69.097 E1038.86859
G1 X91.667 Y69.097 E1038.89443
G1 X92.231 Y69.097 E1038.92027
G1 X92.795 Y69.096 E1038.94611
G1 X93.360 Y69.096 E1038.97195
G1 X93.924 Y69.096 E1038.99774
G1 X94.488 Y69.096 E1039.02358
G1 X95.052 Y69.096 E1039.04942
G1 X95.610 Y69.372 E1039.07008
G1 F2100 E1032.57008
G1 Z2.985
G0 F10200 X95.000 Y71.151
;TYPE:SUPPORT
G1 Z2.910
G1 F2100 E1039.07008
G1 F2700 X95.000 Y123.247 E1040.79846
G0 F10200 X95.000 Y123.088
G0 X93.000 Y123.088
G0 X93.000 Y123.247
G1 F2700 X93.000 Y71.151 E1042.52685
G0 F10200 X93.000 Y71.311
G0 X91.000 Y71.312
G0 X91.000 Y71.152
G1 F2700 X91.000 Y123.247 E1044.25521
G0 F10200 X91.000 Y123.088
G0 X89.000 Y123.088
G0 X89.000 Y123.247
G1 F2700 X89.000 Y71.152 E1045.98356
G0 F10200 X89.000 Y71.312
G0 X87.000 Y71.312
G0 X87.000 Y71.152
G1 F2700 X87.000 Y123.247 E1047.71192
G0 F10200 X87.000 Y123.088
G0 X85.000 Y123.088
G0 X85.000 Y123.247
G1 F2700 X85.000 Y71.152 E1049.44027
G0 F10200 X85.000 Y71.313
G0 X83.000 Y71.313
G0 X83.000 Y71.153
G1 F2700 X83.000 Y123.247 E1051.16859
G0 F10200 X83.000 Y123.088
G0 X97.000 Y123.088
G0 X97.000 Y123.247
G1 F2700 X97.000 Y71.151 E1052.89698
G0 F10200 X97.000 Y71.311
G0 X98.889 Y75.026
G0 X99.000 Y74.914
G1 F2700 X99.000 Y123.247 E1054.50053
G0 F10200 X99.000 Y123.088
G0 X101.000 Y123.088
G0 X101.000 Y123.247
G1 F2700 X101.000 Y81.714 E1055.87847
G0 F10200 X100.889 Y81.826
G0 X102.217 Y86.874
G0 X102.889 Y88.426
G0 X103.000 Y88.314
G1 F2700 X103.000 Y123.247 E1057.03744
G0 F10200 X103.000 Y123.088
G0 X105.000 Y123.088
G0 X105.000 Y123.247
G1 F2700 X105.000 Y95.114 E1057.97080
G0 F10200 X104.889 Y95.226
G0 X106.217 Y100.274
G0 X106.889 Y101.826
G0 X107.000 Y101.714
G1 F2700 X107.000 Y123.247 E1058.68520
G0 F10200 X107.000 Y123.088
G0 X109.000 Y123.088
G0 X109.000 Y123.247
G1 F2700 X109.000 Y108.314 E1059.18064
G0 F10200 X108.889 Y108.426
G0 X109.017 Y109.674
G0 X110.617 Y115.074
G0 X110.889 Y115.226
G0 X111.000 Y115.114
G1 F2700 X111.000 Y123.247 E1059.45047
G0 F10200 X111.000 Y123.088
G0 X81.112 Y111.849
G0 X81.000 Y111.960
G1 F2700 X81.000 Y71.153 E1060.80432
G0 F10200 X81.000 Y71.313
G0 X79.000 Y71.313
G0 X79.000 Y71.153
G1 F2700 X79.000 Y81.560 E1061.14959
;LAYER:9
M106 S58
G1 F2100 E1054.64959
G1 Z2.985
G0 F10200 X79.811 Y70.046 Z3.110
;TYPE:WALL-INNER
G1 Z3.110
G1 F2100 E1061.14959
G1 F2700 X79.747 Y69.186 E1061.17820
G1 X95.743 Y69.186 E1061.70890
G1 X95.767 Y69.167 E1061.70992
G1 X95.986 Y70.041 E1061.73981
G1 X94.389 Y70.045 E1061.79279
G1 X79.811 Y70.046 E1062.27645
G0 F10200 X79.386 Y69.790
G1 F2700 X79.337 Y69.031 E1062.30168
G1 X79.326 Y68.787 E1062.30979
G1 X95.605 Y68.787 E1062.84987
G1 X95.937 Y68.526 E1062.86388
G1 X95.973 Y68.394 E1062.86842
G1 X96.244 Y69.402 E1062.90305
G1 X96.379 Y69.970 E1062.92242
G1 X96.464 Y70.441 E1062.93830
G1 X79.457 Y70.445 E1063.50254
G1 X79.386 Y69.790 E1063.52440
G0 F10200 X78.988 Y69.816
;TYPE:WALL-OUTER
G1 F1800 X78.939 Y69.057 E1063.54963
G1 X78.800 Y65.924 E1063.65368
G1 X78.800 Y64.911 E1063.68729
G1 X79.403 Y64.911 E1063.70729
G1 X79.402 Y65.988 E1063.74303
G1 X79.453 Y67.144 E1063.78142
G1 X79.484 Y67.548 E1063.79486
G1 X79.588 Y68.188 E1063.81637
G1 X79.634 Y68.388 E1063.82318
G1 X95.467 Y68.388 E1064.34847
G1 X95.587 Y68.294 E1064.35353
G1 X95.619 Y68.177 E1064.35755
G1 X95.624 Y68.085 E1064.36061
G1 X95.575 Y67.675 E1064.37431
G1 X94.870 Y64.911 E1064.46895
G1 X95.448 Y64.910 E1064.48812
G1 X96.632 Y69.310 E1064.63929
G1 X96.767 Y69.878 E1064.65866
G1 X96.869 Y70.443 E1064.67771
G1 X96.904 Y70.840 E1064.69093
G1 X79.115 Y70.844 E1065.28112
G1 X79.035 Y70.318 E1065.29877
G1 X78.988 Y69.816 E1065.31550
G0 F10200 X79.937 Y69.876
;TYPE:SKIN
G1 F1800 X80.489 Y69.325 E1065.34137
G0 F10200 X81.053 Y69.325
G1 F1800 X80.472 Y69.905 E1065.36861
G0 F10200 X81.037 Y69.905
G1 F1800 X81.617 Y69.325 E1065.39582
G0 F10200 X82.182 Y69.325
G1 F1800 X81.601 Y69.905 E1065.42306
G0 F10200 X82.165 Y69.905
G1 F1800 X82.746 Y69.325 E1065.45030
G0 F10200 X83.310 Y69.325
G1 F1800 X82.730 Y69.905 E1065.47751
G0 F10200 X83.295 Y69.905
G1 F1800 X83.874 Y69.325 E1065.50470
G0 F10200 X84.439 Y69.325
G1 F1800 X83.859 Y69.905 E1065.53191
G0 F10200 X84.423 Y69.905
G1 F1800 X85.003 Y69.325 E1065.55913
G0 F10200 X85.567 Y69.325
G1 F1800 X84.988 Y69.904 E1065.58629
G0 F10200 X85.552 Y69.904
G1 F1800 X86.131 Y69.325 E1065.61346
G0 F10200 X86.696 Y69.325
G1 F1800 X86.117 Y69.904 E1065.64063
G0 F10200 X86.681 Y69.904
G1 F1800 X87.260 Y69.325 E1065.66779
G0 F10200 X87.824 Y69.325
G1 F1800 X87.246 Y69.903 E1065.69491
G0 F10200 X87.810 Y69.903
G1 F1800 X88.389 Y69.325 E1065.72205
G0 F10200 X88.953 Y69.325
G1 F1800 X88.374 Y69.903 E1065.74920
G0 F10200 X88.939 Y69.903
G1 F1800 X89.517 Y69.325 E1065.77632
G0 F10200 X90.081 Y69.325
G1 F1800 X89.504 Y69.903 E1065.80341
G0 F10200 X90.068 Y69.903
G1 F1800 X90.646 Y69.325 E1065.83053
G0 F10200 X91.210 Y69.325
G1 F1800 X90.632 Y69.903 E1065.85765
G0 F10200 X91.196 Y69.903
G1 F1800 X91.774 Y69.325 E1065.88477
G0 F10200 X92.338 Y69.325
G1 F1800 X91.761 Y69.902 E1065.91184
G0 F10200 X92.326 Y69.902
G1 F1800 X92.903 Y69.325 E1065.93892
G0 F10200 X93.467 Y69.325
G1 F1800 X92.890 Y69.902 E1065.96599
G0 F10200 X93.454 Y69.902
G1 F1800 X94.031 Y69.325 E1065.99306
G0 F10200 X94.596 Y69.325
G1 F1800 X94.019 Y69.901 E1066.02011
G0 F10200 X94.584 Y69.901
G1 F1800 X95.160 Y69.325 E1066.04713
G0 F10200 X95.674 Y69.375
G1 F1800 X95.430 Y69.901 E1066.07182
G1 X95.787 Y69.826 E1066.08392
G1 F2100 E1059.58392
G1 Z3.185
G0 F10200 X79.382 Y68.174
G1 Z3.110
G1 F2100 E1066.08392
G1 F1800 X79.099 Y68.175 E1066.09661
G1 X79.183 Y67.527 E1066.10671
G1 X79.146 Y66.999 E1066.11565
G1 X79.121 Y66.459 E1066.12459
G1 X79.102 Y65.915 E1066.13355
G1 X79.100 Y65.353 E1066.14309
G1 X79.062 Y65.109 E1066.15128
G1 F2100 E1059.65128
G1 Z3.185
G0 F10200 X79.000 Y71.684
;TYPE:SUPPORT
G1 Z3.110
G1 F2100 E1066.15128
G1 F2700 X79.000 Y81.560 E1066.47893
G0 F10200 X79.112 Y81.449
G0 X81.000 Y71.844
G0 X81.000 Y71.684
G1 F2700 X81.000 Y111.960 E1067.81517
G0 F10200 X81.112 Y111.849
G0 X83.000 Y123.088
G0 X83.000 Y123.247
G1 F2700 X83.000 Y71.683 E1069.52591
G0 F10200 X83.000 Y71.843
G0 X85.000 Y71.843
G0 X85.000 Y71.683
G1 F2700 X85.000 Y123.247 E1071.23665
G0 F10200 X85.000 Y123.088
G0 X87.000 Y123.088
G0 X87.000 Y123.247
G1 F2700 X87.000 Y71.682 E1072.94742
G0 F10200 X87.000 Y71.842
G0 X89.000 Y71.842
G0 X89.000 Y71.682
G1 F2700 X89.000 Y123.247 E1074.65819
G0 F10200 X89.000 Y123.088
G0 X91.000 Y123.088
G0 X91.000 Y123.247
G1 F2700 X91.000 Y71.681 E1076.36899
G0 F10200 X91.000 Y71.841
G0 X93.000 Y71.841
G0 X93.000 Y71.681
G1 F2700 X93.000 Y123.247 E1078.07980
G0 F10200 X93.000 Y123.088
G0 X95.000 Y123.088
G0 X95.000 Y123.247
G1 F2700 X95.000 Y71.680 E1079.79064
G0 F10200 X95.000 Y71.840
G0 X97.000 Y71.840
G0 X97.000 Y71.680
G1 F2700 X97.000 Y123.247 E1081.50147
G0 F10200 X97.000 Y123.088
G0 X99.000 Y123.088
G0 X99.000 Y123.247
G1 F2700 X99.000 Y74.914 E1083.10502
G0 F10200 X98.889 Y75.026
G0 X99.017 Y76.274
G0 X100.617 Y81.674
G0 X100.889 Y81.826
G0 X101.000 Y81.714
G1 F2700 X101.000 Y123.247 E1084.48296
G0 F10200 X101.000 Y123.088
G0 X103.000 Y123.088
G0 X103.000 Y123.247
G1 F2700 X103.000 Y88.314 E1085.64193
G0 F10200 X102.889 Y88.426
G0 X103.417 Y90.874
G0 X104.617 Y95.074
G0 X104.889 Y95.226
G0 X105.000 Y95.114
G1 F2700 X105.000 Y123.247 E1086.57530
G0 F10200 X105.000 Y123.088
G0 X107.000 Y123.088
G0 X107.000 Y123.247
G1 F2700 X107.000 Y101.714 E1087.28970
G0 F10200 X106.889 Y101.826
G0 X107.417 Y104.274
G0 X108.617 Y108.274
G0 X108.889 Y108.426
G0 X109.000 Y108.314
G1 F2700 X109.000 Y123.247 E1087.78513
G0 F10200 X109.000 Y123.088
G0 X111.000 Y123.088
G0 X111.000 Y123.247
G1 F2700 X111.000 Y115.114 E1088.05496
;LAYER:10
M106 S63
G1 F2100 E1081.55496
G1 Z3.185
G0 F10200 X96.152 Y70.571 Z3.310
;TYPE:WALL-INNER
G1 Z3.310
G1 F2100 E1088.05496
G1 F2700 X79.845 Y70.575 E1088.59597
G1 X79.778 Y69.687 E1088.62552
G1 X95.897 Y69.690 E1089.16030
G1 X95.936 Y69.658 E1089.16197
G1 X96.101 Y70.316 E1089.18448
G1 X96.152 Y70.571 E1089.19311
G0 F10200 X95.755 Y69.291
G1 F2700 X96.102 Y69.010 E1089.20792
G1 X96.134 Y68.854 E1089.21320
G1 X96.374 Y69.747 E1089.24388
G1 X96.495 Y70.245 E1089.26088
G1 X96.588 Y70.713 E1089.27671
G1 X96.623 Y70.970 E1089.28532
G1 X79.495 Y70.974 E1089.85358
G1 X79.419 Y70.309 E1089.87578
G1 X79.357 Y69.365 E1089.90717
G1 X79.353 Y69.288 E1089.90973
G1 X95.755 Y69.291 E1090.45390
G0 F10200 X95.614 Y68.892
;TYPE:WALL-OUTER
G1 F1800 X95.740 Y68.790 E1090.45927
G1 X95.774 Y68.623 E1090.46493
G1 X95.729 Y68.163 E1090.48026
G1 X95.611 Y67.609 E1090.49905
G1 X94.872 Y64.774 E1090.59625
G1 X95.448 Y64.773 E1090.61536
G1 X96.762 Y69.653 E1090.78303
G1 X96.881 Y70.143 E1090.79976
G1 X96.985 Y70.664 E1090.81739
G1 X97.057 Y71.200 E1090.83533
G1 X97.064 Y71.356 E1090.84051
G1 X97.062 Y71.369 E1090.84095
G1 X79.156 Y71.373 E1091.43502
G1 X79.071 Y70.852 E1091.45253
G1 X79.021 Y70.335 E1091.46976
G1 X78.959 Y69.391 E1091.50115
G1 X78.800 Y65.787 E1091.62084
G1 X78.800 Y64.774 E1091.65444
G1 X79.403 Y64.774 E1091.67445
G1 X79.402 Y65.851 E1091.71018
G1 X79.474 Y67.484 E1091.76441
G1 X79.512 Y68.001 E1091.78161
G1 X79.620 Y68.681 E1091.80445
G1 X79.659 Y68.889 E1091.81148
G1 X95.614 Y68.892 E1092.34081
G0 F10200 X95.503 Y69.829
;TYPE:SKIN
G1 F1800 X95.945 Y70.271 E1092.36155
G0 F10200 X95.540 Y70.430
G1 F1800 X94.938 Y69.829 E1092.38977
G0 F10200 X94.374 Y69.829
G1 F1800 X94.975 Y70.430 E1092.41797
G0 F10200 X94.411 Y70.430
G1 F1800 X93.810 Y69.829 E1092.44617
G0 F10200 X93.246 Y69.829
G1 F1800 X93.847 Y70.430 E1092.47437
G0 F10200 X93.283 Y70.431
G1 F1800 X92.681 Y69.829 E1092.50262
G0 F10200 X92.117 Y69.829
G1 F1800 X92.719 Y70.431 E1092.53086
G0 F10200 X92.155 Y70.431
G1 F1800 X91.552 Y69.828 E1092.55915
G0 F10200 X90.988 Y69.828
G1 F1800 X91.590 Y70.431 E1092.58742
G0 F10200 X91.026 Y70.431
G1 F1800 X90.424 Y69.828 E1092.61569
G0 F10200 X89.859 Y69.828
G1 F1800 X90.462 Y70.432 E1092.64401
G0 F10200 X89.898 Y70.432
G1 F1800 X89.295 Y69.828 E1092.67232
G0 F10200 X88.731 Y69.828
G1 F1800 X89.334 Y70.432 E1092.70064
G0 F10200 X88.770 Y70.432
G1 F1800 X88.167 Y69.828 E1092.72895
G0 F10200 X87.602 Y69.828
G1 F1800 X88.205 Y70.432 E1092.75727
G0 F10200 X87.642 Y70.432
G1 F1800 X87.037 Y69.828 E1092.78563
G0 F10200 X86.473 Y69.828
G1 F1800 X87.078 Y70.432 E1092.81400
G0 F10200 X86.513 Y70.432
G1 F1800 X85.909 Y69.828 E1092.84233
G0 F10200 X85.344 Y69.828
G1 F1800 X85.949 Y70.432 E1092.87070
G0 F10200 X85.385 Y70.432
G1 F1800 X84.780 Y69.828 E1092.89906
G0 F10200 X84.216 Y69.828
G1 F1800 X84.821 Y70.433 E1092.92745
G0 F10200 X84.257 Y70.433
G1 F1800 X83.651 Y69.827 E1092.95588
G0 F10200 X83.087 Y69.827
G1 F1800 X83.693 Y70.433 E1092.98431
G0 F10200 X83.128 Y70.433
G1 F1800 X82.522 Y69.827 E1093.01275
G0 F10200 X81.958 Y69.827
G1 F1800 X82.565 Y70.434 E1093.04123
G0 F10200 X82.001 Y70.434
G1 F1800 X81.394 Y69.827 E1093.06971
G0 F10200 X80.830 Y69.827
G1 F1800 X81.436 Y70.434 E1093.09816
G0 F10200 X80.872 Y70.434
G1 F1800 X80.265 Y69.827 E1093.12664
G0 F10200 X79.945 Y70.071
G1 F1800 X80.308 Y70.434 E1093.14367
G1 F2100 E1086.64367
G1 Z3.385
G0 F10200 X79.485 Y69.047
G1 Z3.310
G1 F2100 E1093.14367
G1 F1800 X79.246 Y68.526 E1093.16055
G1 X79.195 Y67.910 E1093.17309
G1 X79.165 Y67.316 E1093.18327
G1 X79.139 Y66.726 E1093.19315
G1 X79.113 Y66.135 E1093.20303
G1 X79.100 Y65.558 E1093.21277
G1 X78.997 Y65.174 E1093.22596
G1 F2100 E1086.72596
G1 Z3.385
G0 F10200 X79.000 Y72.213
;TYPE:SUPPORT
G1 Z3.310
G1 F2100 E1093.22596
G1 F2700 X79.000 Y81.560 E1093.53607
G0 F10200 X79.112 Y81.449
G0 X81.000 Y72.373
G0 X81.000 Y72.213
G1 F2700 X81.000 Y111.960 E1094.85476
G0 F10200 X81.112 Y111.849
G0 X83.000 Y123.088
G0 X83.000 Y123.247
G1 F2700 X83.000 Y72.212 E1096.54794
G0 F10200 X83.000 Y72.372
G0 X85.000 Y72.372
G0 X85.000 Y72.212
G1 F2700 X85.000 Y123.247 E1098.24113
G0 F10200 X85.000 Y123.088
G0 X87.000 Y123.088
G0 X87.000 Y123.247
G1 F2700 X87.000 Y72.211 E1099.93435
G0 F10200 X87.000 Y72.371
G0 X89.000 Y72.371
G0 X89.000 Y72.211
G1 F2700 X89.000 Y123.247 E1101.62757
G0 F10200 X89.000 Y123.088
G0 X91.000 Y123.088
G0 X91.000 Y123.247
G1 F2700 X91.000 Y72.210 E1103.32083
G0 F10200 X91.000 Y72.370
G0 X93.000 Y72.370
G0 X93.000 Y72.210
G1 F2700 X93.000 Y123.247 E1105.01408
G0 F10200 X93.000 Y123.088
G0 X95.000 Y123.088
G0 X95.000 Y123.247
G1 F2700 X95.000 Y72.209 E1106.70737
G0 F10200 X95.000 Y72.369
G0 X97.000 Y72.369
G0 X97.000 Y72.209
G1 F2700 X97.000 Y123.247 E1108.40065
G0 F10200 X97.000 Y123.088
G0 X99.000 Y123.088
G0 X99.000 Y123.247
G1 F2700 X99.000 Y74.914 E1110.00420
G0 F10200 X98.889 Y75.026
G0 X99.017 Y76.274
G0 X100.617 Y81.674
G0 X100.889 Y81.826
G0 X101.000 Y81.714
G1 F2700 X101.000 Y123.247 E1111.38214
G0 F10200 X101.000 Y123.088
G0 X103.000 Y123.088
G0 X103.000 Y123.247
G1 F2700 X103.000 Y88.314 E1112.54111
G0 F10200 X102.889 Y88.426
G0 X103.417 Y90.874
G0 X104.617 Y95.074
G0 X104.889 Y95.226
G0 X105.000 Y95.114
G1 F2700 X105.000 Y123.247 E1113.47448
G0 F10200 X105.000 Y123.088
G0 X107.000 Y123.088
G0 X107.000 Y123.247
G1 F2700 X107.000 Y101.714 E1114.18888
G0 F10200 X106.889 Y101.826
G0 X107.417 Y104.274
G0 X108.617 Y108.274
G0 X108.889 Y108.426
G0 X109.000 Y108.314
G1 F2700 X109.000 Y123.247 E1114.68431
G0 F10200 X109.000 Y123.088
G0 X111.000 Y123.088
G0 X111.000 Y123.247
G1 F2700 X111.000 Y115.114 E1114.95414
;LAYER:11
M106 S71
G1 F2100 E1108.45414
G1 Z3.385
G0 F10200 X96.321 Y71.101 Z3.510
;TYPE:WALL-INNER
G1 Z3.510
G1 F2100 E1114.95414
G1 F2700 X94.134 Y71.104 E1115.02669
G1 X79.881 Y71.105 E1115.49957
G1 X79.813 Y70.252 E1115.52796
G1 X79.809 Y70.191 E1115.52998
G1 X95.820 Y70.194 E1116.06118
G1 X96.097 Y70.119 E1116.07070
G1 X96.242 Y70.707 E1116.09079
G1 X96.321 Y71.101 E1116.10413
G0 F10200 X96.053 Y69.717
G1 F2700 X96.268 Y69.430 E1116.11602
G1 X96.292 Y69.305 E1116.12025
G1 X96.503 Y70.090 E1116.14721
G1 X96.636 Y70.636 E1116.16586
G1 X96.740 Y71.158 E1116.18352
G1 X96.789 Y71.499 E1116.19495
G1 X79.532 Y71.504 E1116.76748
G1 X79.454 Y70.844 E1116.78953
G1 X79.415 Y70.280 E1116.80829
G1 X79.384 Y69.792 E1116.82451
G1 X95.767 Y69.795 E1117.36805
G1 X96.053 Y69.717 E1117.37788
G0 F10200 X95.816 Y69.368
;TYPE:WALL-OUTER
G1 F1800 X95.894 Y69.265 E1117.38217
G1 X95.921 Y69.125 E1117.38690
G1 X95.922 Y69.054 E1117.38926
G1 X95.858 Y68.510 E1117.40743
G1 X95.736 Y67.951 E1117.42641
G1 X94.872 Y64.637 E1117.54004
G1 X95.448 Y64.636 E1117.55915
G1 X96.891 Y69.995 E1117.74327
G1 X97.022 Y70.533 E1117.76164
G1 X97.134 Y71.092 E1117.78056
G1 X97.205 Y71.590 E1117.79725
G1 X97.221 Y71.869 E1117.80652
G1 X97.219 Y71.898 E1117.80748
G1 X79.192 Y71.903 E1118.40557
G1 X79.107 Y71.379 E1118.42318
G1 X79.056 Y70.871 E1118.44012
G1 X79.017 Y70.307 E1118.45887
G1 X78.980 Y69.725 E1118.47822
G1 X78.800 Y65.650 E1118.61355
G1 X78.800 Y64.637 E1118.64716
G1 X79.403 Y64.637 E1118.66716
G1 X79.402 Y65.714 E1118.70289
G1 X79.496 Y67.822 E1118.77290
G1 X79.530 Y68.334 E1118.78993
G1 X79.653 Y69.178 E1118.81822
G1 X79.696 Y69.393 E1118.82550
G1 X95.714 Y69.396 E1119.35693
G1 X95.816 Y69.368 E1119.36044
G0 F10200 X96.108 Y68.941
;TYPE:SKIN
G1 F1800 X96.192 Y68.575 E1119.37121
G1 X96.081 Y68.121 E1119.37925
G1 X95.964 Y67.674 E1119.38651
G1 X95.846 Y67.228 E1119.39346
G1 X95.728 Y66.782 E1119.40025
G1 X95.610 Y66.335 E1119.40694
G1 X95.491 Y65.889 E1119.41346
G1 X95.373 Y65.443 E1119.41987
G1 X95.380 Y65.154 E1119.42946
G1 F2100 E1112.92946
G1 Z3.585
G0 F10200 X95.281 Y70.333
G1 Z3.510
G1 F2100 E1119.42946
G1 F1800 X94.652 Y70.961 E1119.45895
G0 F10200 X95.216 Y70.961
G1 F1800 X95.847 Y70.330 E1119.48855
G0 F10200 X96.085 Y70.657
G1 F1800 X95.781 Y70.961 E1119.50282
G0 F10200 X94.716 Y70.333
G1 F1800 X94.088 Y70.961 E1119.53228
G0 F10200 X93.524 Y70.961
G1 F1800 X94.152 Y70.333 E1119.56175
G0 F10200 X93.588 Y70.333
G1 F1800 X92.959 Y70.962 E1119.59126
G0 F10200 X92.394 Y70.962
G1 F1800 X93.024 Y70.333 E1119.62079
G0 F10200 X92.459 Y70.333
G1 F1800 X91.830 Y70.962 E1119.65031
G0 F10200 X91.266 Y70.962
G1 F1800 X91.895 Y70.333 E1119.67982
G0 F10200 X91.332 Y70.332
G1 F1800 X90.701 Y70.963 E1119.70943
G0 F10200 X90.137 Y70.963
G1 F1800 X90.767 Y70.332 E1119.73901
G0 F10200 X90.203 Y70.332
G1 F1800 X89.572 Y70.963 E1119.76861
G0 F10200 X89.008 Y70.963
G1 F1800 X89.639 Y70.332 E1119.79822
G0 F10200 X89.074 Y70.332
G1 F1800 X88.444 Y70.963 E1119.82780
G0 F10200 X87.879 Y70.963
G1 F1800 X88.510 Y70.332 E1119.85741
G0 F10200 X87.946 Y70.332
G1 F1800 X87.314 Y70.963 E1119.88704
G0 F10200 X86.750 Y70.963
G1 F1800 X87.382 Y70.331 E1119.91669
G0 F10200 X86.818 Y70.331
G1 F1800 X86.186 Y70.963 E1119.94634
G0 F10200 X85.622 Y70.963
G1 F1800 X86.254 Y70.331 E1119.97600
G0 F10200 X85.690 Y70.331
G1 F1800 X85.057 Y70.964 E1120.00570
G0 F10200 X84.492 Y70.964
G1 F1800 X85.125 Y70.331 E1120.03540
G0 F10200 X84.561 Y70.331
G1 F1800 X83.928 Y70.964 E1120.06510
G0 F10200 X83.364 Y70.964
G1 F1800 X83.997 Y70.331 E1120.09480
G0 F10200 X83.433 Y70.330
G1 F1800 X82.800 Y70.964 E1120.12452
G0 F10200 X82.235 Y70.965
G1 F1800 X82.869 Y70.330 E1120.15429
G0 F10200 X82.305 Y70.330
G1 F1800 X81.670 Y70.965 E1120.18409
G0 F10200 X81.106 Y70.965
G1 F1800 X81.740 Y70.330 E1120.21386
G0 F10200 X81.176 Y70.330
G1 F1800 X80.542 Y70.965 E1120.24363
G0 F10200 X80.007 Y70.936
G1 F1800 X80.612 Y70.330 E1120.27204
G0 F10200 X80.048 Y70.330
G1 F1800 X79.965 Y70.412 E1120.27591
G0 F10200 X79.170 Y69.515
G1 F1800 X79.302 Y69.101 E1120.28946
G1 X79.254 Y68.585 E1120.30070
G1 X79.210 Y68.064 E1120.31005
G1 X79.181 Y67.529 E1120.31896
G1 X79.157 Y66.988 E1120.32792
G1 X79.133 Y66.448 E1120.33686
G1 X79.109 Y65.908 E1120.34581
G1 X79.099 Y65.353 E1120.35518
G1 X79.202 Y64.969 E1120.36837
G1 F2100 E1113.86837
G1 Z3.585
G0 F10200 X79.000 Y72.743
;TYPE:SUPPORT
G1 Z3.510
G1 F2100 E1120.36837
G1 F2700 X79.000 Y81.560 E1120.66089
G0 F10200 X79.112 Y81.449
G0 X81.000 Y72.903
G0 X81.000 Y72.743
G1 F2700 X81.000 Y111.960 E1121.96199
G0 F10200 X81.112 Y111.849
G0 X83.000 Y123.088
G0 X83.000 Y123.247
G1 F2700 X83.000 Y72.742 E1123.63760
G0 F10200 X83.000 Y72.902
G0 X85.000 Y72.902
G0 X85.000 Y72.742
G1 F2700 X85.000 Y123.247 E1125.31320
G0 F10200 X85.000 Y123.088
G0 X87.000 Y123.088
G0 X87.000 Y123.247
G1 F2700 X87.000 Y72.741 E1126.98884
G0 F10200 X87.000 Y72.901
G0 X89.000 Y72.900
G0 X89.000 Y72.740
G1 F2700 X89.000 Y123.247 E1128.66451
G0 F10200 X89.000 Y123.088
G0 X91.000 Y123.088
G0 X91.000 Y123.247
G1 F2700 X91.000 Y72.740 E1130.34018
G0 F10200 X91.000 Y72.900
G0 X93.000 Y72.899
G0 X93.000 Y72.739
G1 F2700 X93.000 Y123.247 E1132.01588
G0 F10200 X93.000 Y123.088
G0 X95.000 Y123.088
G0 X95.000 Y123.247
G1 F2700 X95.000 Y72.739 E1133.69158
G0 F10200 X95.000 Y72.899
G0 X97.000 Y72.898
G0 X97.000 Y72.738
G1 F2700 X97.000 Y123.247 E1135.36732
G0 F10200 X97.000 Y123.088
G0 X99.000 Y123.088
G0 X99.000 Y123.247
G1 F2700 X99.000 Y74.914 E1136.97086
G0 F10200 X98.889 Y75.026
G0 X99.017 Y76.274
G0 X100.617 Y81.674
G0 X100.889 Y81.826
G0 X101.000 Y81.714
G1 F2700 X101.000 Y123.247 E1138.34880
G0 F10200 X101.000 Y123.088
G0 X103.000 Y123.088
G0 X103.000 Y123.247
G1 F2700 X103.000 Y88.314 E1139.50777
G0 F10200 X102.889 Y88.426
G0 X103.417 Y90.874
G0 X104.617 Y95.074
G0 X104.889 Y95.226
G0 X105.000 Y95.114
G1 F2700 X105.000 Y123.247 E1140.44114
G0 F10200 X105.000 Y123.088
G0 X107.000 Y123.088
G0 X107.000 Y123.247
G1 F2700 X107.000 Y101.714 E1141.15554
G0 F10200 X106.889 Y101.826
G0 X107.417 Y104.274
G0 X108.617 Y108.274
G0 X108.889 Y108.426
G0 X109.000 Y108.314
G1 F2700 X109.000 Y123.247 E1141.65097
G0 F10200 X109.000 Y123.088
G0 X111.000 Y123.088
G0 X111.000 Y123.247
G1 F2700 X111.000 Y115.114 E1141.92080
;LAYER:12
M106 S76
G1 F2100 E1135.42080
G1 Z3.585
G0 F10200 X96.489 Y71.630 Z3.710
;TYPE:WALL-INNER
G1 Z3.710
G1 F2100 E1141.92080
G1 F2700 X79.917 Y71.634 E1142.47061
G1 X79.842 Y70.739 E1142.50041
G1 X79.840 Y70.694 E1142.50190
G1 X95.994 Y70.698 E1143.03784
G1 X96.264 Y70.608 E1143.04729
G1 X96.489 Y71.630 E1143.08200
G0 F10200 X96.889 Y71.589
G1 F2700 X96.952 Y72.029 E1143.09675
G1 X79.568 Y72.033 E1143.67350
G1 X79.482 Y71.292 E1143.69825
G1 X79.444 Y70.774 E1143.71548
G1 X79.415 Y70.295 E1143.73140
G1 X95.929 Y70.299 E1144.27929
G1 X96.260 Y70.189 E1144.29086
G1 X96.447 Y69.836 E1144.30411
G1 X96.453 Y69.767 E1144.30641
G1 X96.632 Y70.432 E1144.32926
G1 X96.776 Y71.025 E1144.34950
G1 X96.889 Y71.589 E1144.36859
G0 F10200 X97.284 Y71.532
;TYPE:WALL-OUTER
G1 F1800 X97.362 Y72.074 E1144.38675
G1 X97.380 Y72.378 E1144.39686
G1 X97.375 Y72.428 E1144.39853
G1 X79.229 Y72.432 E1145.00055
G1 X79.142 Y71.904 E1145.01831
G1 X79.085 Y71.331 E1145.03741
G1 X79.046 Y70.799 E1145.05511
G1 X79.001 Y70.060 E1145.07967
G1 X78.800 Y65.513 E1145.23068
G1 X78.800 Y64.500 E1145.26428
G1 X79.404 Y64.500 E1145.28432
G1 X79.402 Y65.577 E1145.32006
G1 X79.517 Y68.162 E1145.40590
G1 X79.552 Y68.700 E1145.42379
G1 X79.686 Y69.672 E1145.45634
G1 X79.729 Y69.896 E1145.46391
G1 X95.864 Y69.900 E1145.99922
G1 X95.983 Y69.861 E1146.00338
G1 X96.057 Y69.721 E1146.00863
G1 X96.072 Y69.547 E1146.01442
G1 X96.015 Y69.017 E1146.03211
G1 X95.903 Y68.466 E1146.05076
G1 X94.872 Y64.500 E1146.18672
G1 X95.448 Y64.499 E1146.20583
G1 X97.020 Y70.338 E1146.40644
G1 X97.162 Y70.923 E1146.42642
G1 X97.284 Y71.532 E1146.44702
G0 F10200 X96.233 Y71.124
;TYPE:SKIN
G1 F1800 X95.947 Y70.837 E1146.46046
G0 F10200 X95.383 Y70.837
G1 F1800 X96.035 Y71.489 E1146.49106
G0 F10200 X95.470 Y71.489
G1 F1800 X94.818 Y70.837 E1146.52165
G0 F10200 X94.254 Y70.837
G1 F1800 X94.906 Y71.489 E1146.55224
G0 F10200 X94.342 Y71.489
G1 F1800 X93.690 Y70.837 E1146.58283
G0 F10200 X93.125 Y70.837
G1 F1800 X93.777 Y71.489 E1146.61342
G0 F10200 X93.213 Y71.489
G1 F1800 X92.560 Y70.837 E1146.64404
G0 F10200 X91.996 Y70.837
G1 F1800 X92.650 Y71.490 E1146.67470
G0 F10200 X92.085 Y71.490
G1 F1800 X91.432 Y70.837 E1146.70534
G0 F10200 X90.868 Y70.837
G1 F1800 X91.521 Y71.490 E1146.73598
G0 F10200 X90.957 Y71.490
G1 F1800 X90.303 Y70.836 E1146.76666
G0 F10200 X89.738 Y70.836
G1 F1800 X90.392 Y71.490 E1146.79735
G0 F10200 X89.828 Y71.490
G1 F1800 X89.174 Y70.836 E1146.82803
G0 F10200 X88.610 Y70.836
G1 F1800 X89.265 Y71.491 E1146.85876
G0 F10200 X88.700 Y71.491
G1 F1800 X88.046 Y70.836 E1146.88947
G0 F10200 X87.481 Y70.835
G1 F1800 X88.136 Y71.491 E1146.92023
G0 F10200 X87.572 Y71.491
G1 F1800 X86.916 Y70.835 E1146.95101
G0 F10200 X86.352 Y70.835
G1 F1800 X87.008 Y71.491 E1146.98179
G0 F10200 X86.444 Y71.492
G1 F1800 X85.788 Y70.835 E1147.01259
G0 F10200 X85.223 Y70.835
G1 F1800 X85.880 Y71.492 E1147.04341
G0 F10200 X85.315 Y71.492
G1 F1800 X84.659 Y70.835 E1147.07422
G0 F10200 X84.094 Y70.835
G1 F1800 X84.751 Y71.492 E1147.10504
G0 F10200 X84.187 Y71.492
G1 F1800 X83.530 Y70.835 E1147.13587
G0 F10200 X82.966 Y70.835
G1 F1800 X83.623 Y71.492 E1147.16669
G0 F10200 X83.059 Y71.492
G1 F1800 X82.401 Y70.834 E1147.19757
G0 F10200 X81.837 Y70.834
G1 F1800 X82.495 Y71.492 E1147.22844
G0 F10200 X81.931 Y71.492
G1 F1800 X81.272 Y70.834 E1147.25934
G0 F10200 X80.708 Y70.834
G1 F1800 X81.366 Y71.492 E1147.29021
G0 F10200 X80.802 Y71.492
G1 F1800 X80.144 Y70.834 E1147.32108
G0 F10200 X80.026 Y71.281
G1 F1800 X80.238 Y71.492 E1147.33101
G1 F2100 E1140.83101
G1 Z3.785
G0 F10200 X95.807 Y67.312
G1 Z3.710
G1 F2100 E1147.33101
G1 F1800 X96.036 Y67.823 E1147.34325
G1 X96.225 Y68.576 E1147.35590
G1 X96.372 Y69.288 E1147.37041
G1 X96.393 Y69.591 E1147.38049
G1 F2100 E1140.88049
G1 Z3.785
G0 F10200 X95.861 Y66.802
G1 Z3.710
G1 F2100 E1147.38049
G1 F1800 X95.631 Y66.290 E1147.39230
G1 X95.429 Y65.523 E1147.40358
G1 X95.214 Y65.026 E1147.42154
G1 F2100 E1140.92154
G1 Z3.785
G0 F10200 X79.204 Y64.816
G1 Z3.710
G1 F2100 E1147.42154
G1 F1800 X79.042 Y64.936 E1147.42706
G1 X79.105 Y65.563 E1147.43665
G1 X79.126 Y66.149 E1147.44649
G1 X79.152 Y66.739 E1147.45636
G1 X79.179 Y67.330 E1147.46625
G1 X79.205 Y67.920 E1147.47612
G1 X79.233 Y68.512 E1147.48613
G1 X79.274 Y69.118 E1147.49754
G1 X79.332 Y69.740 E1147.51198
G1 X79.424 Y70.114 E1147.52476
G1 F2100 E1141.02476
G1 Z3.785
G0 F10200 X79.000 Y73.272
;TYPE:SUPPORT
G1 Z3.710
G1 F2100 E1147.52476
G1 F2700 X79.000 Y81.560 E1147.79973
G0 F10200 X79.112 Y81.449
G0 X81.000 Y73.432
G0 X81.000 Y73.272
G1 F2700 X81.000 Y111.960 E1149.08328
G0 F10200 X81.112 Y111.849
G0 X83.000 Y123.088
G0 X83.000 Y123.247
G1 F2700 X83.000 Y73.271 E1150.74133
G0 F10200 X83.000 Y73.431
G0 X85.000 Y73.431
G0 X85.000 Y73.271
G1 F2700 X85.000 Y123.247 E1152.39939
G0 F10200 X85.000 Y123.088
G0 X87.000 Y123.088
G0 X87.000 Y123.247
G1 F2700 X87.000 Y73.270 E1154.05747
G0 F10200 X87.000 Y73.430
G0 X89.000 Y73.430
G0 X89.000 Y73.270
G1 F2700 X89.000 Y123.247 E1155.71556
G0 F10200 X89.000 Y123.088
G0 X91.000 Y123.088
G0 X91.000 Y123.247
G1 F2700 X91.000 Y73.269 E1157.37368
G0 F10200 X91.000 Y73.429
G0 X93.000 Y73.429
G0 X93.000 Y73.269
G1 F2700 X93.000 Y123.247 E1159.03180
G0 F10200 X93.000 Y123.088
G0 X95.000 Y123.088
G0 X95.000 Y123.247
G1 F2700 X95.000 Y73.268 E1160.68995
G0 F10200 X95.000 Y73.428
G0 X97.000 Y73.428
G0 X97.000 Y73.268
G1 F2700 X97.000 Y123.247 E1162.34810
G0 F10200 X97.000 Y123.088
G0 X99.000 Y123.088
G0 X99.000 Y123.247
G1 F2700 X99.000 Y74.914 E1163.95165
G0 F10200 X98.889 Y75.026
G0 X99.017 Y76.274
G0 X100.617 Y81.674
G0 X100.889 Y81.826
G0 X101.000 Y81.714
G1 F2700 X101.000 Y123.247 E1165.32959
G0 F10200 X101.000 Y123.088
G0 X103.000 Y123.088
G0 X103.000 Y123.247
G1 F2700 X103.000 Y88.314 E1166.48856
G0 F10200 X102.889 Y88.426
G0 X103.417 Y90.874
G0 X104.617 Y95.074
G0 X104.889 Y95.226
G0 X105.000 Y95.114
G1 F2700 X105.000 Y123.247 E1167.42193
G0 F10200 X105.000 Y123.088
G0 X107.000 Y123.088
G0 X107.000 Y123.247
G1 F2700 X107.000 Y101.714 E1168.13633
G0 F10200 X106.889 Y101.826
G0 X107.417 Y104.274
G0 X108.617 Y108.274
G0 X108.889 Y108.426
G0 X109.000 Y108.314
G1 F2700 X109.000 Y123.247 E1168.63176
G0 F10200 X109.000 Y123.088
G0 X111.000 Y123.088
G0 X111.000 Y123.247
G1 F2700 X111.000 Y115.114 E1168.90159
;LAYER:13
M106 S84
G1 F2100 E1162.40159
G1 Z3.785
G0 F10200 X96.653 Y72.159 Z3.910
;TYPE:WALL-INNER
G1 Z3.910
G1 F2100 E1168.90159
G1 F2700 X79.952 Y72.164 E1169.45567
G1 X79.874 Y71.247 E1169.48621
G1 X79.872 Y71.203 E1169.48767
G1 X96.149 Y71.203 E1170.02769
G1 X96.430 Y71.102 E1170.03760
G1 X96.617 Y71.933 E1170.06586
G1 X96.653 Y72.159 E1170.07345
G0 F10200 X96.411 Y70.686
G1 F2700 X96.594 Y70.337 E1170.08652
G1 X96.607 Y70.200 E1170.09109
G1 X96.761 Y70.775 E1170.11084
G1 X96.912 Y71.394 E1170.13198
G1 X97.108 Y72.482 E1170.16865
G1 X97.115 Y72.558 E1170.17119
G1 X79.604 Y72.563 E1170.75215
G1 X79.519 Y71.852 E1170.77591
G1 X79.477 Y71.284 E1170.79480
G1 X79.444 Y70.751 E1170.81252
G1 X79.456 Y70.804 E1170.81432
G1 X96.080 Y70.804 E1171.36586
G1 X96.411 Y70.686 E1171.37751
G0 F10200 X96.130 Y70.362
;TYPE:WALL-OUTER
G1 F1800 X96.204 Y70.221 E1171.38280
G1 X96.222 Y70.036 E1171.38896
G1 X96.187 Y69.636 E1171.40229
G1 X96.079 Y69.030 E1171.42271
G1 X94.871 Y64.363 E1171.58265
G1 X95.448 Y64.363 E1171.60179
G1 X97.149 Y70.680 E1171.81884
G1 X97.303 Y71.313 E1171.84045
G1 X97.405 Y71.808 E1171.85722
G1 X97.505 Y72.438 E1171.87838
G1 X97.537 Y72.791 E1171.89014
G1 X97.539 Y72.877 E1171.89299
G1 X97.534 Y72.957 E1171.89565
G1 X79.265 Y72.962 E1172.50176
G1 X79.177 Y72.427 E1172.51975
G1 X79.122 Y71.893 E1172.53756
G1 X79.078 Y71.309 E1172.55699
G1 X79.022 Y70.395 E1172.58737
G1 X78.800 Y65.376 E1172.75405
G1 X78.800 Y64.363 E1172.78766
G1 X79.033 Y64.362 E1172.79539
G1 X79.404 Y64.363 E1172.80770
G1 X79.402 Y65.440 E1172.84343
G1 X79.538 Y68.501 E1172.94508
G1 X79.572 Y69.027 E1172.96257
G1 X79.620 Y69.560 E1172.98033
G1 X79.720 Y70.175 E1173.00100
G1 X79.773 Y70.405 E1173.00883
G1 X96.010 Y70.405 E1173.54752
G1 X96.130 Y70.362 E1173.55175
G0 F10200 X96.399 Y69.779
;TYPE:SKIN
G1 F1800 X96.480 Y69.415 E1173.56282
G1 X96.372 Y68.959 E1173.57159
G1 X96.254 Y68.512 E1173.57932
G1 X96.136 Y68.066 E1173.58684
G1 X96.018 Y67.619 E1173.59418
G1 X95.901 Y67.173 E1173.60135
G1 X95.783 Y66.727 E1173.60837
G1 X95.665 Y66.280 E1173.61521
G1 X95.547 Y65.834 E1173.62188
G1 X95.429 Y65.387 E1173.62838
G1 X95.312 Y64.941 E1173.63475
G1 X95.317 Y64.653 E1173.64430
G1 F2100 E1167.14430
G1 Z3.985
G0 F10200 X95.400 Y71.342
G1 Z3.910
G1 F2100 E1173.64430
G1 F1800 X94.723 Y72.019 E1173.67607
G0 F10200 X95.287 Y72.019
G1 F1800 X95.964 Y71.342 E1173.70783
G0 F10200 X96.374 Y71.496
G1 F1800 X96.133 Y72.019 E1173.73235
G1 X96.477 Y71.958 E1173.74394
G1 F2100 E1167.24394
G1 Z3.985
G0 F10200 X94.835 Y71.342
G1 Z3.910
G1 F2100 E1173.74394
G1 F1800 X94.159 Y72.019 E1173.77568
G0 F10200 X93.594 Y72.020
G1 F1800 X94.271 Y71.342 E1173.80747
G0 F10200 X93.707 Y71.342
G1 F1800 X93.029 Y72.020 E1173.83928
G0 F10200 X92.465 Y72.020
G1 F1800 X93.142 Y71.342 E1173.87107
G0 F10200 X92.578 Y71.342
G1 F1800 X91.901 Y72.020 E1173.90285
G0 F10200 X91.336 Y72.020
G1 F1800 X92.014 Y71.342 E1173.93466
G0 F10200 X91.450 Y71.342
G1 F1800 X90.772 Y72.020 E1173.96648
G0 F10200 X90.207 Y72.020
G1 F1800 X90.885 Y71.342 E1173.99829
G0 F10200 X90.321 Y71.342
G1 F1800 X89.643 Y72.020 E1174.03010
G0 F10200 X89.078 Y72.021
G1 F1800 X89.757 Y71.342 E1174.06196
G0 F10200 X89.193 Y71.342
G1 F1800 X88.514 Y72.021 E1174.09381
G0 F10200 X87.949 Y72.021
G1 F1800 X88.628 Y71.342 E1174.12567
G0 F10200 X88.064 Y71.342
G1 F1800 X87.385 Y72.021 E1174.15753
G0 F10200 X86.820 Y72.022
G1 F1800 X87.500 Y71.342 E1174.18944
G0 F10200 X86.935 Y71.342
G1 F1800 X86.256 Y72.022 E1174.22132
G0 F10200 X85.692 Y72.022
G1 F1800 X86.371 Y71.342 E1174.25320
G0 F10200 X85.807 Y71.342
G1 F1800 X85.127 Y72.022 E1174.28511
G0 F10200 X84.562 Y72.023
G1 F1800 X85.243 Y71.342 E1174.31706
G0 F10200 X84.678 Y71.342
G1 F1800 X83.998 Y72.023 E1174.34899
G0 F10200 X83.434 Y72.023
G1 F1800 X84.114 Y71.342 E1174.38091
G0 F10200 X83.550 Y71.342
G1 F1800 X82.870 Y72.023 E1174.41284
G0 F10200 X82.305 Y72.023
G1 F1800 X82.986 Y71.342 E1174.44480
G0 F10200 X82.421 Y71.342
G1 F1800 X81.740 Y72.023 E1174.47675
G0 F10200 X81.176 Y72.023
G1 F1800 X81.857 Y71.342 E1174.50870
G0 F10200 X81.293 Y71.342
G1 F1800 X80.612 Y72.023 E1174.54065
G0 F10200 X80.078 Y71.993
G1 F1800 X80.728 Y71.342 E1174.57117
G0 F10200 X80.164 Y71.342
G1 F1800 X80.033 Y71.473 E1174.57732
G0 F10200 X79.232 Y70.581
G1 F1800 X79.373 Y70.158 E1174.59167
G1 X79.319 Y69.647 E1174.60325
G1 X79.277 Y69.126 E1174.61311
G1 X79.244 Y68.594 E1174.62220
G1 X79.218 Y68.057 E1174.63105
G1 X79.194 Y67.517 E1174.63995
G1 X79.169 Y66.976 E1174.64886
G1 X79.145 Y66.436 E1174.65781
G1 X79.121 Y65.896 E1174.66675
G1 X79.101 Y65.351 E1174.67569
G1 X79.203 Y64.968 E1174.68884
G1 F2100 E1168.18884
G1 Z3.985
G0 F10200 X79.000 Y73.801
;TYPE:SUPPORT
G1 Z3.910
G1 F2100 E1174.68884
G1 F2700 X79.000 Y81.560 E1174.94626
G0 F10200 X79.112 Y81.449
G0 X81.000 Y73.961
G0 X81.000 Y73.801
G1 F2700 X81.000 Y111.960 E1176.21226
G0 F10200 X81.112 Y111.849
G0 X83.000 Y123.088
G0 X83.000 Y123.247
G1 F2700 X83.000 Y73.800 E1177.85276
G0 F10200 X83.000 Y73.960
G0 X85.000 Y73.960
G0 X85.000 Y73.800
G1 F2700 X85.000 Y123.247 E1179.49326
G0 F10200 X85.000 Y123.088
G0 X87.000 Y123.088
G0 X87.000 Y123.247
G1 F2700 X87.000 Y73.799 E1181.13380
G0 F10200 X87.000 Y73.959
G0 X89.000 Y73.959
G0 X89.000 Y73.799
G1 F2700 X89.000 Y123.247 E1182.77433
G0 F10200 X89.000 Y123.088
G0 X91.000 Y123.088
G0 X91.000 Y123.247
G1 F2700 X91.000 Y73.798 E1184.41490
G0 F10200 X91.000 Y73.958
G0 X93.000 Y73.958
G0 X93.000 Y73.798
G1 F2700 X93.000 Y123.247 E1186.05547
G0 F10200 X93.000 Y123.088
G0 X95.000 Y123.088
G0 X95.000 Y123.247
G1 F2700 X95.000 Y73.797 E1187.69607
G0 F10200 X95.000 Y73.957
G0 X97.000 Y73.957
G0 X97.000 Y73.797
G1 F2700 X97.000 Y123.247 E1189.33667
G0 F10200 X97.000 Y123.088
G0 X99.000 Y123.088
G0 X99.000 Y123.247
G1 F2700 X99.000 Y74.914 E1190.94022
G0 F10200 X98.889 Y75.026
G0 X99.017 Y76.274
G0 X100.617 Y81.674
G0 X100.889 Y81.826
G0 X101.000 Y81.714
G1 F2700 X101.000 Y123.247 E1192.31816
G0 F10200 X101.000 Y123.088
G0 X103.000 Y123.088
G0 X103.000 Y123.247
G1 F2700 X103.000 Y88.314 E1193.47713
G0 F10200 X102.889 Y88.426
G0 X103.417 Y90.874
G0 X104.617 Y95.074
G0 X104.889 Y95.226
G0 X105.000 Y95.114
G1 F2700 X105.000 Y123.247 E1194.41050
G0 F10200 X105.000 Y123.088
G0 X107.000 Y123.088
G0 X107.000 Y123.247
G1 F2700 X107.000 Y101.714 E1195.12490
G0 F10200 X106.889 Y101.826
G0 X107.417 Y104.274
G0 X108.617 Y108.274
G0 X108.889 Y108.426
G0 X109.000 Y108.314
G1 F2700 X109.000 Y123.247 E1195.62033
G0 F10200 X109.000 Y123.088
G0 X111.000 Y123.088
G0 X111.000 Y123.247
G1 F2700 X111.000 Y115.114 E1195.89016
;LAYER:14
M106 S91
G1 F2100 E1189.39016
G1 Z3.985
G0 F10200 X96.822 Y72.688 Z4.110
;TYPE:WALL-INNER
G1 Z4.110
G1 F2100 E1195.89016
G1 F2700 X79.988 Y72.693 E1196.44866
G1 X79.908 Y71.776 E1196.47920
G1 X79.904 Y71.702 E1196.48166
G1 X96.283 Y71.707 E1197.02506
G1 X96.600 Y71.601 E1197.03615
G1 X96.734 Y72.203 E1197.05661
G1 X96.822 Y72.688 E1197.07297
G0 F10200 X97.220 Y72.646
G1 F2700 X97.275 Y73.087 E1197.08771
G1 X79.639 Y73.092 E1197.67282
G1 X79.549 Y72.327 E1197.69838
G1 X79.510 Y71.812 E1197.71551
G1 X79.479 Y71.303 E1197.73243
G1 X96.218 Y71.308 E1198.28778
G1 X96.502 Y71.213 E1198.29771
G1 X96.695 Y70.956 E1198.30838
G1 X96.758 Y70.722 E1198.31642
G1 X96.763 Y70.643 E1198.31904
G1 X97.014 Y71.612 E1198.35225
G1 X97.127 Y72.132 E1198.36991
G1 X97.220 Y72.646 E1198.38724
G0 F10200 X97.615 Y72.590
;TYPE:WALL-OUTER
G1 F1800 X97.688 Y73.175 E1198.40680
G1 X97.697 Y73.395 E1198.41410
G1 X97.692 Y73.486 E1198.41712
G1 X79.298 Y73.491 E1199.02738
G1 X79.212 Y72.944 E1199.04575
G1 X79.152 Y72.368 E1199.06497
G1 X79.112 Y71.837 E1199.08263
G1 X79.043 Y70.728 E1199.11950
G1 X78.800 Y65.240 E1199.30175
G1 X78.800 Y64.226 E1199.33539
G1 X78.973 Y64.225 E1199.34113
G1 X79.404 Y64.226 E1199.35543
G1 X79.402 Y65.304 E1199.39120
G1 X79.560 Y68.841 E1199.50866
G1 X79.594 Y69.386 E1199.52678
G1 X79.636 Y69.908 E1199.54415
G1 X79.752 Y70.668 E1199.56966
G1 X79.798 Y70.904 E1199.57763
G1 X96.153 Y70.909 E1200.12024
G1 X96.258 Y70.874 E1200.12392
G1 X96.330 Y70.778 E1200.12790
G1 X96.362 Y70.658 E1200.13202
G1 X96.371 Y70.517 E1200.13671
G1 X96.318 Y69.979 E1200.15464
G1 X96.212 Y69.414 E1200.17371
G1 X94.871 Y64.226 E1200.35149
G1 X95.448 Y64.226 E1200.37064
G1 X97.278 Y71.023 E1200.60417
G1 X97.404 Y71.527 E1200.62141
G1 X97.519 Y72.060 E1200.63950
G1 X97.615 Y72.590 E1200.65737
G0 F10200 X96.528 Y72.547
;TYPE:SKIN
G1 F1800 X95.827 Y71.846 E1200.69026
G0 F10200 X96.370 Y71.825
G1 F1800 X96.544 Y71.999 E1200.69842
G0 F10200 X95.964 Y72.547
G1 F1800 X95.263 Y71.846 E1200.73131
G0 F10200 X94.699 Y71.846
G1 F1800 X95.400 Y72.547 E1200.76420
G0 F10200 X94.835 Y72.547
G1 F1800 X94.135 Y71.846 E1200.79707
G0 F10200 X93.570 Y71.846
G1 F1800 X94.272 Y72.548 E1200.83001
G0 F10200 X93.707 Y72.548
G1 F1800 X93.005 Y71.846 E1200.86294
G0 F10200 X92.441 Y71.846
G1 F1800 X93.143 Y72.548 E1200.89588
G0 F10200 X92.579 Y72.548
G1 F1800 X91.877 Y71.846 E1200.92882
G0 F10200 X91.312 Y71.845
G1 F1800 X92.015 Y72.549 E1200.96183
G0 F10200 X91.451 Y72.549
G1 F1800 X90.747 Y71.845 E1200.99486
G0 F10200 X90.183 Y71.845
G1 F1800 X90.887 Y72.549 E1201.02789
G0 F10200 X90.323 Y72.549
G1 F1800 X89.619 Y71.845 E1201.06092
G0 F10200 X89.054 Y71.844
G1 F1800 X89.759 Y72.549 E1201.09400
G0 F10200 X89.195 Y72.549
G1 F1800 X88.490 Y71.844 E1201.12708
G0 F10200 X87.925 Y71.844
G1 F1800 X88.630 Y72.549 E1201.16015
G0 F10200 X88.067 Y72.550
G1 F1800 X87.361 Y71.844 E1201.19328
G0 F10200 X86.796 Y71.844
G1 F1800 X87.503 Y72.550 E1201.22643
G0 F10200 X86.938 Y72.550
G1 F1800 X86.232 Y71.844 E1201.25955
G0 F10200 X85.668 Y71.844
G1 F1800 X86.374 Y72.550 E1201.29268
G0 F10200 X85.810 Y72.551
G1 F1800 X85.103 Y71.844 E1201.32585
G0 F10200 X84.538 Y71.843
G1 F1800 X85.246 Y72.551 E1201.35907
G0 F10200 X84.682 Y72.551
G1 F1800 X83.974 Y71.843 E1201.39229
G0 F10200 X83.410 Y71.843
G1 F1800 X84.118 Y72.551 E1201.42551
G0 F10200 X83.554 Y72.551
G1 F1800 X82.846 Y71.843 E1201.45872
G0 F10200 X82.281 Y71.842
G1 F1800 X82.990 Y72.551 E1201.49199
G0 F10200 X82.426 Y72.551
G1 F1800 X81.716 Y71.842 E1201.52528
G0 F10200 X81.152 Y71.842
G1 F1800 X81.862 Y72.552 E1201.55859
G0 F10200 X81.298 Y72.552
G1 F1800 X80.588 Y71.842 E1201.59191
G0 F10200 X80.055 Y71.874
G1 F1800 X80.733 Y72.552 E1201.62372
G0 F10200 X80.169 Y72.552
G1 F1800 X80.109 Y72.492 E1201.62653
G1 F2100 E1195.12653
G1 Z4.185
G0 F10200 X96.093 Y68.162
G1 Z4.110
G1 F2100 E1201.62653
G1 F1800 X96.334 Y68.685 E1201.63989
G1 X96.522 Y69.438 E1201.65377
G1 X96.672 Y70.152 E1201.66942
G1 X96.703 Y70.466 E1201.67989
G1 F2100 E1195.17989
G1 Z4.185
G0 F10200 X96.170 Y67.675
G1 Z4.110
G1 F2100 E1201.67989
G1 F1800 X95.929 Y67.152 E1201.69267
G1 X95.727 Y66.385 E1201.70487
G1 X95.524 Y65.618 E1201.71661
G1 X95.322 Y64.852 E1201.72781
G1 X95.177 Y64.425 E1201.74277
G1 F2100 E1195.24277
G1 Z4.185
G0 F10200 X79.203 Y64.815
G1 Z4.110
G1 F2100 E1201.74277
G1 F1800 X78.998 Y64.892 E1201.75239
G1 X79.113 Y65.571 E1201.76207
G1 X79.139 Y66.162 E1201.77195
G1 X79.165 Y66.752 E1201.78177
G1 X79.192 Y67.342 E1201.79169
G1 X79.218 Y67.933 E1201.80158
G1 X79.244 Y68.523 E1201.81150
G1 X79.271 Y69.115 E1201.82145
G1 X79.307 Y69.715 E1201.83230
G1 X79.351 Y70.324 E1201.84494
G1 X79.581 Y70.835 E1201.86353
G1 F2100 E1195.36353
G1 Z4.185
G0 F10200 X79.000 Y74.330
;TYPE:SUPPORT
G1 Z4.110
G1 F2100 E1201.86353
G1 F2700 X79.000 Y81.560 E1202.10340
G0 F10200 X79.112 Y81.449
G0 X81.000 Y74.490
G0 X81.000 Y74.330
G1 F2700 X81.000 Y111.960 E1203.35185
